(G-CODE GENERATED BY FLATCAM v8.994 - www.flatcam.org - Version Date: 2020/11/7)

(Name: Ujikom-NPTH.drl_cnc)
(Type: G-code from Geometry)
(Units: MM)

(Created on Wednesday, 06 August 2025 at 00:15)

(This preprocessor is the default preprocessor used by FlatCAM.)
(It is made to work with MACH3 compatible motion controllers.)


(TOOLS DIAMETER: )
(Tool: 1 -> Dia: 0.7)
(Tool: 2 -> Dia: 0.8)

(FEEDRATE Z: )
(Tool: 1 -> Feedrate: 300)
(Tool: 2 -> Feedrate: 300)

(FEEDRATE RAPIDS: )
(Tool: 1 -> Feedrate Rapids: 1500)
(Tool: 2 -> Feedrate Rapids: 1500)

(Z_CUT: )
(Tool: 1 -> Z_Cut: -1.7)
(Tool: 2 -> Z_Cut: -1.7)

(Tools Offset: )
(Tool: 1 -> Offset Z: 0.0)
(Tool: 2 -> Offset Z: 0.0)

(Z_MOVE: )
(Tool: 1 -> Z_Move: 2)
(Tool: 2 -> Z_Move: 2)

(Z Toolchange: 15 mm)
(X,Y Toolchange: 0.0000, 0.0000 mm)
(Z Start: None mm)
(Z End: 0.5 mm)
(X,Y End: None mm)
(Steps per circle: 64)
(Preprocessor Excellon: default)

(X range:    4.1200 ...   83.6100  mm)
(Y range:    8.9700 ...   46.7300  mm)

(Spindle Speed: 0 RPM)
G21
G90
G94

G01 F300.00

M5
G00 Z15.0000
T1
G00 X0.0000 Y0.0000                
M6
(MSG, Change to Tool Dia = 0.7000 ||| Total drills for tool T1 = 31)
M0
G00 Z15.0000

G01 F300.00
M03
G00 X4.4700 Y23.1100
G01 Z-1.7000
G01 Z0
G00 Z2.0000
G00 X4.4700 Y19.7100
G01 Z-1.7000
G01 Z0
G00 Z2.0000
G00 X15.2650 Y10.8200
G01 Z-1.7000
G01 Z0
G00 Z2.0000
G00 X15.2650 Y9.3200
G01 Z-1.7000
G01 Z0
G00 Z2.0000
G00 X40.6650 Y12.0900
G01 Z-1.7000
G01 Z0
G00 Z2.0000
G00 X40.6650 Y17.1700
G01 Z-1.7000
G01 Z0
G00 Z2.0000
G00 X52.7300 Y16.5350
G01 Z-1.7000
G01 Z0
G00 Z2.0000
G00 X54.6300 Y24.1550
G01 Z-1.7000
G01 Z0
G00 Z2.0000
G00 X54.6300 Y26.6950
G01 Z-1.7000
G01 Z0
G00 Z2.0000
G00 X54.6300 Y29.2350
G01 Z-1.7000
G01 Z0
G00 Z2.0000
G00 X54.6300 Y31.7750
G01 Z-1.7000
G01 Z0
G00 Z2.0000
G00 X62.2500 Y31.7750
G01 Z-1.7000
G01 Z0
G00 Z2.0000
G00 X62.2500 Y29.2350
G01 Z-1.7000
G01 Z0
G00 Z2.0000
G00 X62.2500 Y26.6950
G01 Z-1.7000
G01 Z0
G00 Z2.0000
G00 X62.2500 Y24.1550
G01 Z-1.7000
G01 Z0
G00 Z2.0000
G00 X57.8100 Y16.5350
G01 Z-1.7000
G01 Z0
G00 Z2.0000
G00 X62.2550 Y17.8050
G01 Z-1.7000
G01 Z0
G00 Z2.0000
G00 X64.7950 Y17.8050
G01 Z-1.7000
G01 Z0
G00 Z2.0000
G00 X71.7800 Y20.3450
G01 Z-1.7000
G01 Z0
G00 Z2.0000
G00 X71.7800 Y18.8450
G01 Z-1.7000
G01 Z0
G00 Z2.0000
G00 X83.2100 Y12.0900
G01 Z-1.7000
G01 Z0
G00 Z2.0000
G00 X83.2100 Y14.6300
G01 Z-1.7000
G01 Z0
G00 Z2.0000
G00 X81.9400 Y27.0450
G01 Z-1.7000
G01 Z0
G00 Z2.0000
G00 X81.9400 Y29.0450
G01 Z-1.7000
G01 Z0
G00 Z2.0000
G00 X81.9400 Y31.0450
G01 Z-1.7000
G01 Z0
G00 Z2.0000
G00 X81.9400 Y33.0450
G01 Z-1.7000
G01 Z0
G00 Z2.0000
G00 X58.8620 Y46.3800
G01 Z-1.7000
G01 Z0
G00 Z2.0000
G00 X57.0660 Y44.5840
G01 Z-1.7000
G01 Z0
G00 Z2.0000
G00 X55.2700 Y46.3800
G01 Z-1.7000
G01 Z0
G00 Z2.0000
G00 X10.1850 Y31.7750
G01 Z-1.7000
G01 Z0
G00 Z2.0000
G00 X5.1050 Y31.7750
G01 Z-1.7000
G01 Z0
G00 Z2.0000
M05
G00 Z0.50


