(G-CODE GENERATED BY FLATCAM v8.994 - www.flatcam.org - Version Date: 2020/11/7)

(Name: Ujikom-Edge_Cuts.gbr_iso_combined_cnc)
(Type: G-code from Geometry)
(Units: MM)

(Created on Wednesday, 06 August 2025 at 00:15)

(This preprocessor is the default preprocessor used by FlatCAM.)
(It is made to work with MACH3 compatible motion controllers.)

(TOOL DIAMETER: 0.1 mm)
(Feedrate_XY: 120.0 mm/min)
(Feedrate_Z: 60.0 mm/min)
(Feedrate rapids 1500.0 mm/min)

(Z_Cut: 0.0 mm)
(Z_Move: 2.0 mm)
(Z Start: None mm)
(Z End: 15.0 mm)
(X,Y End: None mm)
(Steps per circle: 64)
(Preprocessor Geometry: default)

(X range:   -0.0500 ...   87.7300  mm)
(Y range:   -0.0500 ...   49.6300  mm)

(Spindle Speed: 0.0 RPM)
G21
G90
G94

G01 F120.00

M5
G00 Z15.0000
G00 X0.0000 Y0.0000
T1
M6    
(MSG, Change to Tool Dia = 0.1000)
M0
G00 Z15.0000

M03
G01 F120.00
G00 X0.1000 Y49.4800
G01 F60.00
G01 Z0.0000
G01 F120.00
G01 X0.1000 Y0.1000
G01 X87.5800 Y0.1000
G01 X87.5800 Y49.4800
G01 X0.1000 Y49.4800
G00 Z2.0000
G00 X-0.0500 Y49.5550
G01 F60.00
G01 Z0.0000
G01 F120.00
G01 X-0.0500 Y0.0250
G01 X-0.0493 Y0.0152
G01 X-0.0471 Y0.0044
G01 X-0.0443 Y-0.0037
G01 X-0.0399 Y-0.0125
G01 X-0.0337 Y-0.0216
G01 X-0.0280 Y-0.0280
G01 X-0.0206 Y-0.0345
G01 X-0.0114 Y-0.0406
G01 X-0.0037 Y-0.0443
G01 X0.0056 Y-0.0474
G01 X0.0164 Y-0.0495
G01 X0.0250 Y-0.0500
G01 X87.6550 Y-0.0500
G01 X87.6648 Y-0.0493
G01 X87.6756 Y-0.0471
G01 X87.6837 Y-0.0443
G01 X87.6925 Y-0.0399
G01 X87.7016 Y-0.0337
G01 X87.7081 Y-0.0280
G01 X87.7145 Y-0.0206
G01 X87.7206 Y-0.0114
G01 X87.7243 Y-0.0037
G01 X87.7274 Y0.0056
G01 X87.7295 Y0.0164
G01 X87.7300 Y0.0250
G01 X87.7300 Y49.5550
G01 X87.7294 Y49.5648
G01 X87.7271 Y49.5756
G01 X87.7243 Y49.5837
G01 X87.7200 Y49.5925
G01 X87.7138 Y49.6016
G01 X87.7081 Y49.6081
G01 X87.7007 Y49.6145
G01 X87.6914 Y49.6206
G01 X87.6837 Y49.6243
G01 X87.6744 Y49.6274
G01 X87.6636 Y49.6295
G01 X87.6550 Y49.6300
G01 X0.0250 Y49.6300
G01 X0.0177 Y49.6297
G01 X0.0104 Y49.6286
G01 X0.0032 Y49.6268
G01 X-0.0037 Y49.6243
G01 X-0.0103 Y49.6212
G01 X-0.0167 Y49.6174
G01 X-0.0226 Y49.6130
G01 X-0.0280 Y49.6081
G01 X-0.0330 Y49.6026
G01 X-0.0374 Y49.5967
G01 X-0.0411 Y49.5904
G01 X-0.0443 Y49.5837
G01 X-0.0468 Y49.5768
G01 X-0.0486 Y49.5696
G01 X-0.0496 Y49.5624
G01 X-0.0500 Y49.5550
G00 Z2.0000
M05
G00 Z2.0000
G00 Z15.00


