(G-CODE GENERATED BY FLATCAM v8.994 - www.flatcam.org - Version Date: 2020/11/7)

(Name: Ujikom-B_Cu.gbr_iso_combined_cnc)
(Type: G-code from Geometry)
(Units: MM)

(Created on Wednesday, 06 August 2025 at 00:15)

(This preprocessor is the default preprocessor used by FlatCAM.)
(It is made to work with MACH3 compatible motion controllers.)

(TOOL DIAMETER: 0.1 mm)
(Feedrate_XY: 120.0 mm/min)
(Feedrate_Z: 60.0 mm/min)
(Feedrate rapids 1500.0 mm/min)

(Z_Cut: -0.0 mm)
(Z_Move: 2.0 mm)
(Z Start: None mm)
(Z End: 15.0 mm)
(X,Y End: None mm)
(Steps per circle: 64)
(Preprocessor Geometry: default)

(X range:    0.4755 ...   87.2045  mm)
(Y range:    0.4755 ...   49.1045  mm)

(Spindle Speed: 0.0 RPM)
G21
G90
G94

G01 F120.00

M5
G00 Z15.0000
G00 X0.0000 Y0.0000
T1
M6    
(MSG, Change to Tool Dia = 0.1000)
M0
G00 Z15.0000

M03
G01 F120.00
G00 X14.2032 Y8.8698
G01 F60.00
G01 Z-0.0000
G01 F120.00
G01 X14.2810 Y8.7170
G01 X14.3875 Y8.5705
G01 X14.5155 Y8.4425
G01 X14.6620 Y8.3360
G01 X14.8234 Y8.2538
G01 X14.9956 Y8.1978
G01 X15.1745 Y8.1695
G01 X15.3556 Y8.1695
G01 X15.5344 Y8.1978
G01 X15.7067 Y8.2538
G01 X15.8680 Y8.3360
G01 X16.0145 Y8.4425
G01 X16.1426 Y8.5705
G01 X16.2490 Y8.7170
G01 X16.3269 Y8.8698
G01 X15.8638 Y8.8698
G01 X15.8440 Y8.8433
G01 X15.7962 Y8.7906
G01 X15.7417 Y8.7410
G01 X15.6817 Y8.6964
G01 X15.6175 Y8.6580
G01 X15.5497 Y8.6262
G01 X15.4827 Y8.6023
G01 X15.4137 Y8.5850
G01 X15.3385 Y8.5736
G01 X15.2650 Y8.5700
G01 X15.1915 Y8.5736
G01 X15.1163 Y8.5850
G01 X15.0473 Y8.6023
G01 X14.9803 Y8.6262
G01 X14.9126 Y8.6580
G01 X14.8483 Y8.6964
G01 X14.7883 Y8.7410
G01 X14.7338 Y8.7906
G01 X14.6860 Y8.8433
G01 X14.6662 Y8.8698
G01 X14.2032 Y8.8698
G00 Z2.0000
G00 X3.5925 Y23.8595
G01 F60.00
G01 Z-0.0000
G01 F120.00
G01 X3.4860 Y23.7130
G01 X3.4038 Y23.5517
G01 X3.3478 Y23.3794
G01 X3.3195 Y23.2006
G01 X3.3195 Y23.0195
G01 X3.3478 Y22.8406
G01 X3.4038 Y22.6684
G01 X3.4860 Y22.5070
G01 X3.5925 Y22.3605
G01 X3.7205 Y22.2325
G01 X3.8670 Y22.1260
G01 X4.0284 Y22.0438
G01 X4.2006 Y21.9878
G01 X4.3795 Y21.9595
G01 X4.5606 Y21.9595
G01 X4.7394 Y21.9878
G01 X4.9025 Y22.0408
G01 X4.5751 Y22.3682
G01 X4.5423 Y22.3635
G01 X4.4688 Y22.3600
G01 X4.3965 Y22.3636
G01 X4.3225 Y22.3747
G01 X4.2523 Y22.3923
G01 X4.1830 Y22.4171
G01 X4.1165 Y22.4486
G01 X4.0523 Y22.4871
G01 X3.9942 Y22.5303
G01 X3.9415 Y22.5780
G01 X3.8903 Y22.6342
G01 X3.8464 Y22.6933
G01 X3.8098 Y22.7543
G01 X3.7762 Y22.8253
G01 X3.7523 Y22.8923
G01 X3.7350 Y22.9613
G01 X3.7239 Y23.0341
G01 X3.7200 Y23.1100
G01 X3.7234 Y23.1811
G01 X3.7344 Y23.2563
G01 X3.7523 Y23.3277
G01 X3.7771 Y23.3970
G01 X3.8075 Y23.4614
G01 X3.8464 Y23.5267
G01 X3.8903 Y23.5858
G01 X3.9397 Y23.6403
G01 X3.9942 Y23.6898
G01 X4.0533 Y23.7336
G01 X4.1165 Y23.7715
G01 X4.1830 Y23.8029
G01 X4.2511 Y23.8273
G01 X4.3237 Y23.8456
G01 X4.3989 Y23.8566
G01 X4.4700 Y23.8600
G01 X4.5411 Y23.8566
G01 X4.6163 Y23.8456
G01 X4.6901 Y23.8269
G01 X4.7570 Y23.8029
G01 X4.8214 Y23.7726
G01 X4.8867 Y23.7336
G01 X4.9477 Y23.6882
G01 X5.0020 Y23.6386
G01 X5.0498 Y23.5858
G01 X5.0922 Y23.5287
G01 X5.1315 Y23.4636
G01 X5.1634 Y23.3959
G01 X5.1877 Y23.3277
G01 X5.2051 Y23.2587
G01 X5.2163 Y23.1847
G01 X5.2200 Y23.1088
G01 X5.2165 Y23.0377
G01 X5.2118 Y23.0049
G01 X5.5392 Y22.6775
G01 X5.5922 Y22.8406
G01 X5.6205 Y23.0195
G01 X5.6205 Y23.2006
G01 X5.5922 Y23.3794
G01 X5.5362 Y23.5516
G01 X5.4540 Y23.7130
G01 X5.3476 Y23.8595
G01 X5.2195 Y23.9876
G01 X5.0730 Y24.0940
G01 X4.9117 Y24.1762
G01 X4.7394 Y24.2322
G01 X4.5606 Y24.2605
G01 X4.3795 Y24.2605
G01 X4.2006 Y24.2322
G01 X4.0284 Y24.1762
G01 X3.8670 Y24.0940
G01 X3.7205 Y23.9876
G01 X3.5925 Y23.8595
G00 Z2.0000
G00 X1.4798 Y28.6000
G01 F60.00
G01 Z-0.0000
G01 F120.00
G01 X1.4798 Y21.6150
G01 X1.4823 Y21.5684
G01 X1.4885 Y21.5272
G01 X1.4989 Y21.4855
G01 X1.5141 Y21.4427
G01 X1.5342 Y21.4007
G01 X1.5571 Y21.3629
G01 X1.5820 Y21.3294
G01 X1.6100 Y21.2985
G01 X1.6444 Y21.2670
G01 X1.6799 Y21.2407
G01 X1.7178 Y21.2180
G01 X1.7600 Y21.1982
G01 X1.7993 Y21.1842
G01 X1.8398 Y21.1740
G01 X1.8883 Y21.1668
G01 X1.9300 Y21.1648
G01 X2.3785 Y21.1648
G01 X3.7282 Y19.8151
G01 X3.7235 Y19.7823
G01 X3.7200 Y19.7112
G01 X3.7238 Y19.6353
G01 X3.7344 Y19.5637
G01 X3.7517 Y19.4947
G01 X3.7771 Y19.4230
G01 X3.8098 Y19.3543
G01 X3.8464 Y19.2933
G01 X3.8895 Y19.2352
G01 X3.9406 Y19.1788
G01 X3.9933 Y19.1310
G01 X4.0198 Y19.1112
G01 X4.0198 Y10.8200
G01 X4.0220 Y10.7759
G01 X4.0285 Y10.7322
G01 X4.0392 Y10.6893
G01 X4.0546 Y10.6466
G01 X4.0730 Y10.6078
G01 X4.0957 Y10.5699
G01 X4.1220 Y10.5344
G01 X4.1517 Y10.5017
G01 X13.0417 Y1.6117
G01 X13.0763 Y1.5805
G01 X13.1099 Y1.5557
G01 X13.1457 Y1.5342
G01 X13.1877 Y1.5141
G01 X13.2305 Y1.4989
G01 X13.2722 Y1.4885
G01 X13.3134 Y1.4823
G01 X13.3600 Y1.4798
G01 X84.4812 Y1.4798
G01 X84.5241 Y1.4820
G01 X84.5678 Y1.4885
G01 X84.6107 Y1.4992
G01 X84.6523 Y1.5141
G01 X84.6922 Y1.5330
G01 X84.7301 Y1.5557
G01 X84.7656 Y1.5820
G01 X84.7975 Y1.6108
G01 X87.0732 Y3.8866
G01 X87.1035 Y3.9203
G01 X87.1283 Y3.9539
G01 X87.1498 Y3.9897
G01 X87.1699 Y4.0317
G01 X87.1852 Y4.0745
G01 X87.1956 Y4.1162
G01 X87.2017 Y4.1574
G01 X87.2042 Y4.2040
G01 X87.2042 Y23.7860
G01 X87.2017 Y23.8326
G01 X87.1956 Y23.8738
G01 X87.1848 Y23.9167
G01 X87.1699 Y23.9583
G01 X87.1522 Y23.9960
G01 X87.1269 Y24.0381
G01 X87.1020 Y24.0716
G01 X87.0732 Y24.1035
G01 X83.8125 Y27.3642
G01 X83.7806 Y27.3930
G01 X83.7451 Y27.4193
G01 X83.7072 Y27.4421
G01 X83.6695 Y27.4599
G01 X83.6233 Y27.4765
G01 X83.5828 Y27.4866
G01 X83.5391 Y27.4930
G01 X83.4950 Y27.4952
G01 X82.5388 Y27.4952
G01 X82.5190 Y27.5217
G01 X82.4712 Y27.5745
G01 X82.4167 Y27.6240
G01 X82.3567 Y27.6686
G01 X82.2925 Y27.7070
G01 X82.2247 Y27.7388
G01 X82.1577 Y27.7627
G01 X82.0887 Y27.7801
G01 X82.0135 Y27.7914
G01 X81.9400 Y27.7950
G01 X81.8665 Y27.7914
G01 X81.7913 Y27.7801
G01 X81.7223 Y27.7627
G01 X81.6553 Y27.7388
G01 X81.5876 Y27.7070
G01 X81.5233 Y27.6686
G01 X81.4633 Y27.6240
G01 X81.4088 Y27.5745
G01 X81.3610 Y27.5217
G01 X81.3412 Y27.4952
G01 X62.5988 Y27.4952
G01 X62.5534 Y27.4927
G01 X62.5122 Y27.4866
G01 X62.4705 Y27.4762
G01 X62.4266 Y27.4605
G01 X62.3889 Y27.4426
G01 X62.3742 Y27.4340
G01 X62.3235 Y27.4414
G01 X62.2512 Y27.4450
G01 X62.1753 Y27.4413
G01 X62.1013 Y27.4301
G01 X62.0323 Y27.4127
G01 X61.9641 Y27.3884
G01 X61.8943 Y27.3552
G01 X61.8333 Y27.3186
G01 X61.7742 Y27.2748
G01 X61.7197 Y27.2253
G01 X61.6719 Y27.1727
G01 X61.6264 Y27.1117
G01 X61.5886 Y27.0486
G01 X61.5581 Y26.9843
G01 X61.5317 Y26.9104
G01 X61.5144 Y26.8413
G01 X61.5036 Y26.7685
G01 X61.5000 Y26.6950
G01 X61.5036 Y26.6215
G01 X61.5144 Y26.5487
G01 X61.5317 Y26.4797
G01 X61.5581 Y26.4058
G01 X61.5886 Y26.3415
G01 X61.6264 Y26.2783
G01 X61.6703 Y26.2192
G01 X61.7188 Y26.1656
G01 X61.7742 Y26.1153
G01 X61.8354 Y26.0701
G01 X61.8965 Y26.0336
G01 X61.9608 Y26.0031
G01 X62.0311 Y25.9777
G01 X62.1037 Y25.9594
G01 X62.1777 Y25.9485
G01 X62.2512 Y25.9450
G01 X62.3223 Y25.9485
G01 X62.3551 Y25.9532
G01 X69.7817 Y18.5267
G01 X69.8144 Y18.4970
G01 X69.8520 Y18.4694
G01 X69.8878 Y18.4480
G01 X69.9277 Y18.4291
G01 X69.9693 Y18.4142
G01 X70.0098 Y18.4040
G01 X70.0571 Y18.3969
G01 X70.1000 Y18.3948
G01 X71.1812 Y18.3948
G01 X71.2010 Y18.3683
G01 X71.2506 Y18.3138
G01 X71.3042 Y18.2653
G01 X71.3644 Y18.2207
G01 X71.4265 Y18.1836
G01 X71.4930 Y18.1521
G01 X71.5623 Y18.1273
G01 X71.6349 Y18.1092
G01 X71.7065 Y18.0986
G01 X71.7776 Y18.0951
G01 X71.8560 Y18.0989
G01 X71.9263 Y18.1094
G01 X71.9977 Y18.1273
G01 X72.0670 Y18.1521
G01 X72.1314 Y18.1825
G01 X72.1987 Y18.2228
G01 X72.2558 Y18.2653
G01 X72.3103 Y18.3147
G01 X72.3613 Y18.3712
G01 X72.4036 Y18.4283
G01 X72.4415 Y18.4915
G01 X72.4738 Y18.5603
G01 X72.4977 Y18.6273
G01 X72.5156 Y18.6987
G01 X72.5264 Y18.7715
G01 X72.5300 Y18.8426
G01 X72.5261 Y18.9210
G01 X72.5156 Y18.9913
G01 X72.4977 Y19.0627
G01 X72.4729 Y19.1320
G01 X72.4426 Y19.1964
G01 X72.4022 Y19.2637
G01 X72.3598 Y19.3208
G01 X72.3103 Y19.3753
G01 X72.2558 Y19.4248
G01 X72.1967 Y19.4686
G01 X72.1336 Y19.5065
G01 X72.0670 Y19.5379
G01 X71.9977 Y19.5627
G01 X71.9263 Y19.5806
G01 X71.8535 Y19.5914
G01 X71.7776 Y19.5950
G01 X71.7065 Y19.5914
G01 X71.6361 Y19.5810
G01 X71.5647 Y19.5634
G01 X71.4930 Y19.5379
G01 X71.4276 Y19.5070
G01 X71.3633 Y19.4686
G01 X71.3033 Y19.4240
G01 X71.2488 Y19.3745
G01 X71.2010 Y19.3217
G01 X71.1812 Y19.2952
G01 X70.2865 Y19.2952
G01 X62.9918 Y26.5899
G01 X62.9925 Y26.5948
G01 X81.3412 Y26.5948
G01 X81.3610 Y26.5683
G01 X81.4088 Y26.5156
G01 X81.4633 Y26.4660
G01 X81.5233 Y26.4214
G01 X81.5876 Y26.3830
G01 X81.6553 Y26.3512
G01 X81.7223 Y26.3273
G01 X81.7913 Y26.3100
G01 X81.8665 Y26.2986
G01 X81.9400 Y26.2950
G01 X82.0135 Y26.2986
G01 X82.0887 Y26.3100
G01 X82.1577 Y26.3273
G01 X82.2247 Y26.3512
G01 X82.2925 Y26.3830
G01 X82.3567 Y26.4214
G01 X82.4167 Y26.4660
G01 X82.4712 Y26.5156
G01 X82.5190 Y26.5683
G01 X82.5388 Y26.5948
G01 X83.3085 Y26.5948
G01 X86.3038 Y23.5995
G01 X86.3038 Y4.3905
G01 X84.2935 Y2.3802
G01 X13.5465 Y2.3802
G01 X4.9202 Y11.0065
G01 X4.9202 Y19.1112
G01 X4.9467 Y19.1310
G01 X4.9995 Y19.1788
G01 X5.0505 Y19.2352
G01 X5.0936 Y19.2933
G01 X5.1302 Y19.3543
G01 X5.1624 Y19.4219
G01 X5.1884 Y19.4947
G01 X5.2056 Y19.5637
G01 X5.2161 Y19.6341
G01 X5.2200 Y19.7100
G01 X5.2161 Y19.7860
G01 X5.2056 Y19.8563
G01 X5.1877 Y19.9277
G01 X5.1629 Y19.9970
G01 X5.1315 Y20.0636
G01 X5.0936 Y20.1267
G01 X5.0498 Y20.1858
G01 X5.0003 Y20.2403
G01 X4.9458 Y20.2898
G01 X4.8867 Y20.3336
G01 X4.8236 Y20.3715
G01 X4.7570 Y20.4029
G01 X4.6865 Y20.4281
G01 X4.6163 Y20.4456
G01 X4.5423 Y20.4565
G01 X4.4688 Y20.4600
G01 X4.3977 Y20.4565
G01 X4.3649 Y20.4518
G01 X2.8834 Y21.9334
G01 X2.8506 Y21.9630
G01 X2.8151 Y21.9893
G01 X2.7750 Y22.0132
G01 X2.7373 Y22.0309
G01 X2.6980 Y22.0451
G01 X2.6540 Y22.0563
G01 X2.6091 Y22.0630
G01 X2.5662 Y22.0652
G01 X2.3802 Y22.0652
G01 X2.3802 Y28.4135
G01 X4.9999 Y31.0332
G01 X5.0327 Y31.0285
G01 X5.1038 Y31.0250
G01 X5.1797 Y31.0288
G01 X5.2537 Y31.0400
G01 X5.3227 Y31.0573
G01 X5.3909 Y31.0816
G01 X5.4586 Y31.1136
G01 X5.5237 Y31.1528
G01 X5.5808 Y31.1953
G01 X5.6336 Y31.2430
G01 X5.6840 Y31.2983
G01 X5.7286 Y31.3583
G01 X5.7652 Y31.4193
G01 X5.7988 Y31.4903
G01 X5.8227 Y31.5573
G01 X5.8406 Y31.6287
G01 X5.8514 Y31.7015
G01 X5.8550 Y31.7750
G01 X5.8514 Y31.8485
G01 X5.8406 Y31.9213
G01 X5.8227 Y31.9927
G01 X5.7988 Y32.0597
G01 X5.7652 Y32.1307
G01 X5.7286 Y32.1917
G01 X5.6840 Y32.2517
G01 X5.6353 Y32.3053
G01 X5.5808 Y32.3548
G01 X5.5217 Y32.3986
G01 X5.4586 Y32.4365
G01 X5.3920 Y32.4679
G01 X5.3227 Y32.4927
G01 X5.2513 Y32.5106
G01 X5.1785 Y32.5214
G01 X5.1050 Y32.5250
G01 X5.0315 Y32.5214
G01 X4.9587 Y32.5106
G01 X4.8873 Y32.4927
G01 X4.8180 Y32.4679
G01 X4.7515 Y32.4365
G01 X4.6883 Y32.3986
G01 X4.6283 Y32.3540
G01 X4.5730 Y32.3036
G01 X4.5253 Y32.2508
G01 X4.4828 Y32.1937
G01 X4.4436 Y32.1286
G01 X4.4116 Y32.0609
G01 X4.3867 Y31.9904
G01 X4.3694 Y31.9213
G01 X4.3588 Y31.8497
G01 X4.3550 Y31.7738
G01 X4.3585 Y31.7027
G01 X4.3632 Y31.6699
G01 X1.6108 Y28.9175
G01 X1.5820 Y28.8856
G01 X1.5557 Y28.8501
G01 X1.5330 Y28.8122
G01 X1.5141 Y28.7723
G01 X1.4992 Y28.7307
G01 X1.4885 Y28.6878
G01 X1.4820 Y28.6441
G01 X1.4798 Y28.6000
G00 Z2.0000
G00 X0.4755 Y48.9305
G01 F60.00
G01 Z-0.0000
G01 F120.00
G01 X0.4755 Y0.6495
G01 X0.4764 Y0.6400
G01 X0.4881 Y0.5862
G01 X0.4905 Y0.5790
G01 X0.4932 Y0.5734
G01 X0.4989 Y0.5653
G01 X0.5455 Y0.5115
G01 X0.5519 Y0.5056
G01 X0.5581 Y0.5015
G01 X0.5672 Y0.4976
G01 X0.6354 Y0.4775
G01 X0.6424 Y0.4760
G01 X0.6495 Y0.4755
G01 X87.0305 Y0.4755
G01 X87.0400 Y0.4764
G01 X87.0939 Y0.4881
G01 X87.0998 Y0.4900
G01 X87.1066 Y0.4932
G01 X87.1148 Y0.4989
G01 X87.1685 Y0.5455
G01 X87.1736 Y0.5509
G01 X87.1785 Y0.5581
G01 X87.1824 Y0.5672
G01 X87.2025 Y0.6354
G01 X87.2040 Y0.6424
G01 X87.2045 Y0.6495
G01 X87.2045 Y3.0317
G01 X87.2041 Y3.0435
G01 X87.2031 Y3.0509
G01 X87.2015 Y3.0568
G01 X87.1757 Y3.1257
G01 X87.1729 Y3.1313
G01 X87.1694 Y3.1364
G01 X87.1654 Y3.1411
G01 X87.1607 Y3.1452
G01 X87.1028 Y3.1886
G01 X87.0964 Y3.1924
G01 X87.0907 Y3.1949
G01 X87.0848 Y3.1966
G01 X87.0787 Y3.1976
G01 X87.0040 Y3.2028
G01 X86.9978 Y3.2024
G01 X86.9929 Y3.2015
G01 X86.9881 Y3.2002
G01 X86.9824 Y3.1978
G01 X86.9178 Y3.1626
G01 X86.9129 Y3.1594
G01 X86.9083 Y3.1555
G01 X85.0222 Y1.2694
G01 X84.8829 Y1.1763
G01 X84.7281 Y1.1122
G01 X84.5638 Y1.0795
G01 X13.2762 Y1.0795
G01 X13.1119 Y1.1122
G01 X12.9571 Y1.1763
G01 X12.8179 Y1.2694
G01 X3.8094 Y10.2778
G01 X3.7163 Y10.4171
G01 X3.6522 Y10.5719
G01 X3.6195 Y10.7362
G01 X3.6195 Y18.8667
G01 X3.6192 Y18.8777
G01 X3.6181 Y18.8848
G01 X3.6164 Y18.8906
G01 X3.5929 Y18.9564
G01 X3.5895 Y18.9640
G01 X3.5863 Y18.9690
G01 X3.4860 Y19.1070
G01 X3.4038 Y19.2684
G01 X3.3478 Y19.4406
G01 X3.3212 Y19.6091
G01 X3.3185 Y19.6222
G01 X3.3149 Y19.6311
G01 X3.2809 Y19.6935
G01 X3.2777 Y19.6985
G01 X3.2732 Y19.7040
G01 X2.2637 Y20.7135
G01 X2.2597 Y20.7171
G01 X2.2351 Y20.7366
G01 X2.2287 Y20.7402
G01 X2.2229 Y20.7424
G01 X2.1547 Y20.7625
G01 X2.1466 Y20.7642
G01 X2.1407 Y20.7645
G01 X1.8462 Y20.7645
G01 X1.6819 Y20.7972
G01 X1.5271 Y20.8613
G01 X1.3878 Y20.9544
G01 X1.2694 Y21.0729
G01 X1.1763 Y21.2122
G01 X1.1122 Y21.3669
G01 X1.0795 Y21.5312
G01 X1.0795 Y28.6838
G01 X1.1122 Y28.8481
G01 X1.1763 Y29.0029
G01 X1.2694 Y29.1422
G01 X3.9073 Y31.7801
G01 X3.9148 Y31.7881
G01 X3.9191 Y31.7939
G01 X3.9220 Y31.7992
G01 X3.9520 Y31.8623
G01 X3.9549 Y31.8701
G01 X3.9562 Y31.8759
G01 X3.9828 Y32.0444
G01 X4.0388 Y32.2167
G01 X4.1210 Y32.3780
G01 X4.2275 Y32.5245
G01 X4.3555 Y32.6526
G01 X4.5020 Y32.7590
G01 X4.6634 Y32.8412
G01 X4.8356 Y32.8972
G01 X5.0145 Y32.9255
G01 X5.1956 Y32.9255
G01 X5.3744 Y32.8972
G01 X5.5467 Y32.8412
G01 X5.7080 Y32.7590
G01 X5.8545 Y32.6526
G01 X5.9826 Y32.5245
G01 X6.0890 Y32.3780
G01 X6.1712 Y32.2166
G01 X6.2272 Y32.0444
G01 X6.2555 Y31.8656
G01 X6.2555 Y31.6845
G01 X6.2272 Y31.5056
G01 X6.1712 Y31.3334
G01 X6.0890 Y31.1720
G01 X5.9826 Y31.0255
G01 X5.8545 Y30.8975
G01 X5.7080 Y30.7910
G01 X5.5467 Y30.7088
G01 X5.3744 Y30.6528
G01 X5.2059 Y30.6262
G01 X5.1929 Y30.6235
G01 X5.1839 Y30.6199
G01 X5.1215 Y30.5859
G01 X5.1165 Y30.5827
G01 X5.1118 Y30.5790
G01 X2.8305 Y28.2977
G01 X2.8098 Y28.2721
G01 X2.8065 Y28.2669
G01 X2.8038 Y28.2614
G01 X2.7822 Y28.1886
G01 X2.7809 Y28.1816
G01 X2.7805 Y28.1757
G01 X2.7805 Y22.5626
G01 X2.7809 Y22.5523
G01 X2.7824 Y22.5448
G01 X2.7981 Y22.4974
G01 X2.8008 Y22.4865
G01 X2.8086 Y22.4681
G01 X2.8119 Y22.4629
G01 X2.8158 Y22.4580
G01 X2.8203 Y22.4537
G01 X2.8493 Y22.4304
G01 X2.8633 Y22.4164
G01 X2.8698 Y22.4112
G01 X2.8832 Y22.4038
G01 X2.9679 Y22.3687
G01 X3.1072 Y22.2756
G01 X4.4751 Y20.9077
G01 X4.4840 Y20.8994
G01 X4.4889 Y20.8959
G01 X4.4942 Y20.8930
G01 X4.5573 Y20.8631
G01 X4.5651 Y20.8601
G01 X4.5709 Y20.8589
G01 X4.7394 Y20.8322
G01 X4.9117 Y20.7762
G01 X5.0730 Y20.6940
G01 X5.2195 Y20.5876
G01 X5.3476 Y20.4595
G01 X5.3708 Y20.4275
G01 X5.3708 Y18.9925
G01 X5.3489 Y18.9620
G01 X5.3464 Y18.9579
G01 X5.3438 Y18.9524
G01 X5.3222 Y18.8797
G01 X5.3209 Y18.8727
G01 X5.3205 Y18.8667
G01 X5.3205 Y12.8875
G01 X5.3092 Y12.8557
G01 X5.2985 Y12.8128
G01 X5.2920 Y12.7691
G01 X5.2898 Y12.7250
G01 X5.2920 Y12.6809
G01 X5.2985 Y12.6372
G01 X5.3092 Y12.5943
G01 X5.3205 Y12.5625
G01 X5.3205 Y11.2444
G01 X5.3236 Y11.2127
G01 X5.3253 Y11.2043
G01 X5.3289 Y11.1951
G01 X5.3629 Y11.1327
G01 X5.3668 Y11.1267
G01 X5.3715 Y11.1213
G01 X13.6613 Y2.8315
G01 X13.6869 Y2.8105
G01 X13.6920 Y2.8071
G01 X13.6975 Y2.8043
G01 X13.7032 Y2.8022
G01 X13.7737 Y2.7817
G01 X13.7796 Y2.7807
G01 X13.7844 Y2.7805
G01 X84.0557 Y2.7805
G01 X84.0886 Y2.7838
G01 X84.0969 Y2.7856
G01 X84.1060 Y2.7895
G01 X84.1673 Y2.8229
G01 X84.1733 Y2.8268
G01 X84.1787 Y2.8315
G01 X85.8525 Y4.5053
G01 X85.8735 Y4.5309
G01 X85.8769 Y4.5360
G01 X85.8797 Y4.5415
G01 X85.8818 Y4.5472
G01 X85.9015 Y4.6143
G01 X85.9033 Y4.6236
G01 X85.9035 Y23.3630
G01 X85.9001 Y23.3958
G01 X85.8987 Y23.4018
G01 X85.8967 Y23.4076
G01 X85.8605 Y23.4743
G01 X85.8565 Y23.4802
G01 X85.8525 Y23.4847
G01 X83.1937 Y26.1435
G01 X83.1681 Y26.1645
G01 X83.1598 Y26.1697
G01 X83.1518 Y26.1728
G01 X83.0847 Y26.1925
G01 X83.0789 Y26.1938
G01 X83.0730 Y26.1945
G01 X82.7833 Y26.1945
G01 X82.7724 Y26.1942
G01 X82.7640 Y26.1928
G01 X82.6936 Y26.1679
G01 X82.6860 Y26.1645
G01 X82.6810 Y26.1613
G01 X82.5430 Y26.0610
G01 X82.3817 Y25.9788
G01 X82.2094 Y25.9228
G01 X82.0306 Y25.8945
G01 X81.8495 Y25.8945
G01 X81.6706 Y25.9228
G01 X81.4984 Y25.9788
G01 X81.3370 Y26.0610
G01 X81.1990 Y26.1613
G01 X81.1879 Y26.1686
G01 X81.1790 Y26.1724
G01 X81.1108 Y26.1925
G01 X81.1050 Y26.1938
G01 X81.0979 Y26.1945
G01 X64.3734 Y26.1945
G01 X64.3590 Y26.1939
G01 X64.3506 Y26.1922
G01 X64.2816 Y26.1666
G01 X64.2748 Y26.1635
G01 X64.2686 Y26.1594
G01 X64.2631 Y26.1545
G01 X64.2590 Y26.1497
G01 X64.2150 Y26.0907
G01 X64.2126 Y26.0864
G01 X64.2101 Y26.0807
G01 X64.2087 Y26.0760
G01 X64.2076 Y26.0699
G01 X64.2023 Y25.9965
G01 X64.2025 Y25.9890
G01 X64.2038 Y25.9817
G01 X64.2053 Y25.9770
G01 X64.2077 Y25.9713
G01 X64.2418 Y25.9089
G01 X64.2457 Y25.9029
G01 X64.2495 Y25.8983
G01 X70.4013 Y19.7465
G01 X70.4260 Y19.7263
G01 X70.4320 Y19.7221
G01 X70.4375 Y19.7193
G01 X70.4432 Y19.7172
G01 X70.5103 Y19.6975
G01 X70.5184 Y19.6959
G01 X70.5232 Y19.6955
G01 X70.5433 Y19.6955
G01 X70.5673 Y19.6975
G01 X70.5734 Y19.6984
G01 X70.5808 Y19.7006
G01 X70.5876 Y19.7017
G01 X70.5925 Y19.7031
G01 X70.5972 Y19.7049
G01 X70.6017 Y19.7072
G01 X70.6251 Y19.7221
G01 X70.6510 Y19.7351
G01 X70.6562 Y19.7385
G01 X70.6609 Y19.7426
G01 X70.6661 Y19.7487
G01 X70.6729 Y19.7551
G01 X70.6781 Y19.7621
G01 X70.6810 Y19.7675
G01 X70.6915 Y19.7905
G01 X70.7069 Y19.8165
G01 X70.7088 Y19.8211
G01 X70.7106 Y19.8271
G01 X70.7117 Y19.8351
G01 X70.7138 Y19.8429
G01 X70.7146 Y19.8503
G01 X70.7142 Y19.8578
G01 X70.7105 Y19.8840
G01 X70.7097 Y19.9104
G01 X70.7090 Y19.9164
G01 X70.7073 Y19.9233
G01 X70.6578 Y20.0756
G01 X70.6295 Y20.2545
G01 X70.6295 Y20.4356
G01 X70.6578 Y20.6144
G01 X70.7138 Y20.7867
G01 X70.7960 Y20.9480
G01 X70.9025 Y21.0945
G01 X71.0305 Y21.2226
G01 X71.1770 Y21.3290
G01 X71.3384 Y21.4112
G01 X71.5106 Y21.4672
G01 X71.6895 Y21.4955
G01 X71.8706 Y21.4955
G01 X72.0494 Y21.4672
G01 X72.2217 Y21.4112
G01 X72.3830 Y21.3290
G01 X72.5295 Y21.2226
G01 X72.6576 Y21.0945
G01 X72.7640 Y20.9480
G01 X72.8462 Y20.7866
G01 X72.9022 Y20.6144
G01 X72.9247 Y20.4720
G01 X72.7325 Y20.6642
G01 X72.7006 Y20.6930
G01 X72.6651 Y20.7193
G01 X72.6272 Y20.7421
G01 X72.5895 Y20.7599
G01 X72.5445 Y20.7762
G01 X72.5028 Y20.7866
G01 X72.4604 Y20.7929
G01 X72.4162 Y20.7952
G01 X72.3788 Y20.7952
G01 X72.3590 Y20.8217
G01 X72.3112 Y20.8745
G01 X72.2567 Y20.9240
G01 X72.1967 Y20.9686
G01 X72.1325 Y21.0070
G01 X72.0670 Y21.0379
G01 X72.0001 Y21.0619
G01 X71.9263 Y21.0806
G01 X71.8511 Y21.0916
G01 X71.7800 Y21.0950
G01 X71.7077 Y21.0915
G01 X71.6337 Y21.0806
G01 X71.5623 Y21.0627
G01 X71.4930 Y21.0379
G01 X71.4265 Y21.0065
G01 X71.3633 Y20.9686
G01 X71.3042 Y20.9248
G01 X71.2497 Y20.8753
G01 X71.2019 Y20.8227
G01 X71.1564 Y20.7617
G01 X71.1198 Y20.7007
G01 X71.0862 Y20.6297
G01 X71.0623 Y20.5627
G01 X71.0444 Y20.4913
G01 X71.0336 Y20.4185
G01 X71.0301 Y20.3426
G01 X71.0336 Y20.2715
G01 X71.0440 Y20.2011
G01 X71.0623 Y20.1273
G01 X71.0881 Y20.0558
G01 X71.1186 Y19.9915
G01 X71.1551 Y19.9304
G01 X71.2003 Y19.8692
G01 X71.2515 Y19.8130
G01 X71.3042 Y19.7653
G01 X71.3613 Y19.7228
G01 X71.4243 Y19.6848
G01 X71.4953 Y19.6512
G01 X71.5623 Y19.6273
G01 X71.6337 Y19.6094
G01 X71.7065 Y19.5986
G01 X71.7776 Y19.5951
G01 X71.8560 Y19.5989
G01 X71.9263 Y19.6094
G01 X71.9977 Y19.6273
G01 X72.0670 Y19.6521
G01 X72.1314 Y19.6825
G01 X72.1987 Y19.7228
G01 X72.2558 Y19.7653
G01 X72.3095 Y19.8139
G01 X72.8508 Y19.2725
G01 X72.9022 Y19.1144
G01 X72.9305 Y18.9356
G01 X72.9305 Y18.7545
G01 X72.9022 Y18.5756
G01 X72.8462 Y18.4034
G01 X72.7640 Y18.2420
G01 X72.6576 Y18.0955
G01 X72.5295 Y17.9675
G01 X72.3830 Y17.8610
G01 X72.2217 Y17.7788
G01 X72.0494 Y17.7228
G01 X71.8706 Y17.6945
G01 X71.6895 Y17.6945
G01 X71.5106 Y17.7228
G01 X71.3384 Y17.7788
G01 X71.1770 Y17.8610
G01 X71.0390 Y17.9613
G01 X71.0279 Y17.9686
G01 X71.0235 Y17.9708
G01 X71.0179 Y17.9728
G01 X70.9462 Y17.9936
G01 X70.9367 Y17.9945
G01 X70.0162 Y17.9945
G01 X69.8519 Y18.0272
G01 X69.6971 Y18.0913
G01 X69.5579 Y18.1844
G01 X63.7975 Y23.9447
G01 X63.7870 Y23.9544
G01 X63.7798 Y23.9592
G01 X63.7129 Y23.9899
G01 X63.7059 Y23.9925
G01 X63.6999 Y23.9938
G01 X63.6937 Y23.9944
G01 X63.6863 Y23.9940
G01 X63.6147 Y23.9837
G01 X63.6074 Y23.9820
G01 X63.6005 Y23.9791
G01 X63.5952 Y23.9760
G01 X63.5912 Y23.9730
G01 X63.5365 Y23.9257
G01 X63.5306 Y23.9193
G01 X63.5259 Y23.9120
G01 X63.5222 Y23.9028
G01 X63.5025 Y23.8357
G01 X63.5014 Y23.8311
G01 X63.5006 Y23.8252
G01 X63.5005 Y23.5576
G01 X63.4908 Y23.4627
G01 X63.4392 Y23.3070
G01 X63.3532 Y23.1676
G01 X63.2374 Y23.0518
G01 X63.1832 Y23.0183
G01 X63.1781 Y23.0147
G01 X63.1352 Y22.9729
G01 X63.1311 Y22.9684
G01 X63.1264 Y22.9614
G01 X63.1226 Y22.9525
G01 X63.1025 Y22.8843
G01 X63.1012 Y22.8785
G01 X63.1005 Y22.8702
G01 X63.1005 Y20.7744
G01 X63.1038 Y20.7415
G01 X63.1056 Y20.7331
G01 X63.1095 Y20.7241
G01 X63.1429 Y20.6627
G01 X63.1468 Y20.6567
G01 X63.1515 Y20.6513
G01 X64.6963 Y19.1065
G01 X64.7003 Y19.1029
G01 X64.7239 Y19.0841
G01 X64.7303 Y19.0803
G01 X64.7382 Y19.0772
G01 X64.8064 Y19.0572
G01 X64.8111 Y19.0562
G01 X64.8170 Y19.0556
G01 X65.3925 Y19.0555
G01 X65.4873 Y19.0458
G01 X65.6431 Y18.9942
G01 X65.7824 Y18.9082
G01 X65.8982 Y18.7924
G01 X65.9842 Y18.6531
G01 X66.0358 Y18.4973
G01 X66.0455 Y18.4025
G01 X66.0455 Y17.2076
G01 X66.0358 Y17.1127
G01 X65.9842 Y16.9570
G01 X65.8982 Y16.8176
G01 X65.7824 Y16.7018
G01 X65.6431 Y16.6158
G01 X65.4873 Y16.5642
G01 X65.3925 Y16.5545
G01 X64.1976 Y16.5545
G01 X64.1027 Y16.5642
G01 X63.9470 Y16.6158
G01 X63.8076 Y16.7018
G01 X63.6918 Y16.8176
G01 X63.6058 Y16.9570
G01 X63.5542 Y17.1127
G01 X63.5534 Y17.1205
G01 X63.5504 Y17.1383
G01 X63.5480 Y17.1467
G01 X63.5448 Y17.1534
G01 X63.5092 Y17.2164
G01 X63.5056 Y17.2214
G01 X63.5013 Y17.2260
G01 X63.4956 Y17.2307
G01 X63.4903 Y17.2339
G01 X63.4263 Y17.2676
G01 X63.4217 Y17.2695
G01 X63.4157 Y17.2712
G01 X63.4058 Y17.2723
G01 X63.3300 Y17.2660
G01 X63.3239 Y17.2649
G01 X63.3180 Y17.2631
G01 X63.3112 Y17.2600
G01 X63.3060 Y17.2567
G01 X63.2487 Y17.2125
G01 X63.2435 Y17.2076
G01 X63.2397 Y17.2030
G01 X63.1326 Y17.0555
G01 X63.0045 Y16.9275
G01 X62.8580 Y16.8210
G01 X62.6967 Y16.7388
G01 X62.5244 Y16.6828
G01 X62.3456 Y16.6545
G01 X62.1645 Y16.6545
G01 X61.9856 Y16.6828
G01 X61.8134 Y16.7388
G01 X61.6520 Y16.8210
G01 X61.5140 Y16.9213
G01 X61.5029 Y16.9286
G01 X61.4985 Y16.9308
G01 X61.4929 Y16.9328
G01 X61.4258 Y16.9525
G01 X61.4165 Y16.9543
G01 X59.5044 Y16.9545
G01 X59.4990 Y16.9542
G01 X59.4690 Y16.9509
G01 X59.4619 Y16.9490
G01 X59.4541 Y16.9456
G01 X59.3917 Y16.9115
G01 X59.3867 Y16.9082
G01 X59.3831 Y16.9052
G01 X59.0077 Y16.5299
G01 X59.0002 Y16.5219
G01 X58.9966 Y16.5171
G01 X58.9930 Y16.5108
G01 X58.9631 Y16.4477
G01 X58.9601 Y16.4399
G01 X58.9589 Y16.4341
G01 X58.9322 Y16.2656
G01 X58.8762 Y16.0934
G01 X58.7940 Y15.9320
G01 X58.6876 Y15.7855
G01 X58.5595 Y15.6575
G01 X58.4130 Y15.5510
G01 X58.2517 Y15.4688
G01 X58.0794 Y15.4128
G01 X57.9839 Y15.3977
G01 X57.7441 Y15.3977
G01 X56.9592 Y16.1826
G01 X56.9592 Y16.8874
G01 X57.5912 Y17.5195
G01 X57.6191 Y17.5504
G01 X57.6461 Y17.5869
G01 X57.6687 Y17.6249
G01 X57.6866 Y17.6626
G01 X57.6934 Y17.6814
G01 X57.7186 Y17.6857
G01 X57.7233 Y17.6869
G01 X57.7289 Y17.6891
G01 X57.7945 Y17.7247
G01 X57.7985 Y17.7273
G01 X57.8032 Y17.7310
G01 X58.5378 Y18.4656
G01 X58.6772 Y18.5587
G01 X58.8319 Y18.6228
G01 X58.9962 Y18.6555
G01 X61.4117 Y18.6555
G01 X61.4263 Y18.6563
G01 X61.4356 Y18.6586
G01 X61.5014 Y18.6821
G01 X61.5090 Y18.6855
G01 X61.5140 Y18.6887
G01 X61.6520 Y18.7890
G01 X61.8134 Y18.8712
G01 X61.9856 Y18.9272
G01 X62.0665 Y18.9400
G01 X62.0736 Y18.9417
G01 X62.1363 Y18.9681
G01 X62.1405 Y18.9704
G01 X62.1454 Y18.9740
G01 X62.1489 Y18.9772
G01 X62.1529 Y18.9817
G01 X62.1962 Y19.0396
G01 X62.2001 Y19.0459
G01 X62.2025 Y19.0516
G01 X62.2045 Y19.0588
G01 X62.2054 Y19.0650
G01 X62.2104 Y19.1359
G01 X62.2103 Y19.1421
G01 X62.2095 Y19.1482
G01 X62.2074 Y19.1554
G01 X62.2049 Y19.1611
G01 X62.1709 Y19.2235
G01 X62.1670 Y19.2295
G01 X62.1623 Y19.2349
G01 X61.5894 Y19.8079
G01 X61.4963 Y19.9471
G01 X61.4322 Y20.1019
G01 X61.3995 Y20.2662
G01 X61.3995 Y22.8702
G01 X61.3991 Y22.8764
G01 X61.3855 Y22.9372
G01 X61.3820 Y22.9463
G01 X61.3768 Y22.9545
G01 X61.3244 Y23.0126
G01 X61.3179 Y23.0177
G01 X61.2626 Y23.0518
G01 X61.1468 Y23.1676
G01 X61.0608 Y23.3070
G01 X61.0092 Y23.4627
G01 X60.9995 Y23.5576
G01 X60.9995 Y24.7525
G01 X61.0092 Y24.8473
G01 X61.0608 Y25.0031
G01 X61.1468 Y25.1424
G01 X61.2626 Y25.2582
G01 X61.4020 Y25.3442
G01 X61.5577 Y25.3958
G01 X61.5655 Y25.3967
G01 X61.5833 Y25.3996
G01 X61.5917 Y25.4020
G01 X61.5984 Y25.4052
G01 X61.6614 Y25.4408
G01 X61.6664 Y25.4445
G01 X61.6710 Y25.4487
G01 X61.6750 Y25.4534
G01 X61.6783 Y25.4587
G01 X61.7126 Y25.5238
G01 X61.7159 Y25.5331
G01 X61.7173 Y25.5430
G01 X61.7171 Y25.5492
G01 X61.7107 Y25.6225
G01 X61.7093 Y25.6285
G01 X61.7077 Y25.6332
G01 X61.7050 Y25.6388
G01 X61.7017 Y25.6440
G01 X61.6582 Y25.7004
G01 X61.6526 Y25.7065
G01 X61.6480 Y25.7103
G01 X61.5005 Y25.8175
G01 X61.3725 Y25.9455
G01 X61.2660 Y26.0920
G01 X61.1838 Y26.2534
G01 X61.1278 Y26.4256
G01 X61.0995 Y26.6045
G01 X61.0995 Y26.7856
G01 X61.1278 Y26.9644
G01 X61.1838 Y27.1367
G01 X61.2660 Y27.2980
G01 X61.3725 Y27.4445
G01 X61.5005 Y27.5726
G01 X61.6470 Y27.6790
G01 X61.8084 Y27.7612
G01 X61.9284 Y27.8003
G01 X61.9584 Y27.8139
G01 X61.9628 Y27.8163
G01 X61.9679 Y27.8199
G01 X61.9734 Y27.8250
G01 X62.0214 Y27.8774
G01 X62.0252 Y27.8823
G01 X62.0284 Y27.8877
G01 X62.0308 Y27.8934
G01 X62.0328 Y27.9006
G01 X62.0450 Y27.9706
G01 X62.0457 Y27.9780
G01 X62.0449 Y27.9879
G01 X62.0427 Y27.9963
G01 X62.0140 Y28.0641
G01 X62.0105 Y28.0706
G01 X62.0068 Y28.0756
G01 X62.0025 Y28.0801
G01 X61.9967 Y28.0848
G01 X61.9390 Y28.1242
G01 X61.9318 Y28.1283
G01 X61.9263 Y28.1305
G01 X61.8084 Y28.1688
G01 X61.6470 Y28.2510
G01 X61.5005 Y28.3575
G01 X61.3725 Y28.4855
G01 X61.2660 Y28.6320
G01 X61.1838 Y28.7934
G01 X61.1278 Y28.9656
G01 X61.0995 Y29.1445
G01 X61.0995 Y29.3256
G01 X61.1278 Y29.5044
G01 X61.1838 Y29.6767
G01 X61.2660 Y29.8380
G01 X61.3725 Y29.9845
G01 X61.5005 Y30.1126
G01 X61.6470 Y30.2190
G01 X61.8084 Y30.3012
G01 X61.9273 Y30.3399
G01 X61.9606 Y30.3550
G01 X61.9669 Y30.3591
G01 X61.9725 Y30.3641
G01 X62.0206 Y30.4165
G01 X62.0266 Y30.4244
G01 X62.0304 Y30.4322
G01 X62.0328 Y30.4406
G01 X62.0452 Y30.5118
G01 X62.0457 Y30.5180
G01 X62.0454 Y30.5242
G01 X62.0441 Y30.5316
G01 X62.0417 Y30.5386
G01 X62.0140 Y30.6041
G01 X62.0118 Y30.6085
G01 X62.0083 Y30.6137
G01 X62.0034 Y30.6193
G01 X61.9977 Y30.6241
G01 X61.9390 Y30.6642
G01 X61.9329 Y30.6678
G01 X61.9263 Y30.6705
G01 X61.8175 Y30.7058
G01 X62.1449 Y31.0332
G01 X62.1777 Y31.0285
G01 X62.2500 Y31.0250
G01 X62.3223 Y31.0285
G01 X62.3551 Y31.0332
G01 X62.6617 Y30.7267
G01 X62.6840 Y30.7063
G01 X62.5727 Y30.6701
G01 X62.5383 Y30.6544
G01 X62.5331 Y30.6509
G01 X62.5275 Y30.6459
G01 X62.4794 Y30.5935
G01 X62.4735 Y30.5856
G01 X62.4696 Y30.5778
G01 X62.4670 Y30.5683
G01 X62.4549 Y30.4982
G01 X62.4543 Y30.4920
G01 X62.4547 Y30.4846
G01 X62.4559 Y30.4785
G01 X62.4578 Y30.4726
G01 X62.4860 Y30.4059
G01 X62.4902 Y30.3983
G01 X62.4957 Y30.3916
G01 X62.5033 Y30.3852
G01 X62.5610 Y30.3458
G01 X62.5671 Y30.3422
G01 X62.5738 Y30.3395
G01 X62.6917 Y30.3012
G01 X62.8530 Y30.2190
G01 X62.9995 Y30.1126
G01 X63.1276 Y29.9845
G01 X63.1408 Y29.9663
G01 X63.1446 Y29.9619
G01 X63.1833 Y29.9256
G01 X63.1906 Y29.9209
G01 X63.1986 Y29.9176
G01 X63.2679 Y29.8972
G01 X63.2773 Y29.8956
G01 X81.0424 Y29.8955
G01 X81.0567 Y29.8961
G01 X81.0652 Y29.8978
G01 X81.1342 Y29.9234
G01 X81.1398 Y29.9259
G01 X81.1462 Y29.9298
G01 X81.1518 Y29.9347
G01 X81.1560 Y29.9393
G01 X81.1993 Y29.9972
G01 X81.2032 Y30.0036
G01 X81.2060 Y30.0105
G01 X81.2076 Y30.0165
G01 X81.2083 Y30.0214
G01 X81.2134 Y30.0923
G01 X81.2134 Y30.0997
G01 X81.2123 Y30.1071
G01 X81.2105 Y30.1131
G01 X81.2080 Y30.1187
G01 X81.1740 Y30.1812
G01 X81.1701 Y30.1872
G01 X81.1654 Y30.1925
G01 X81.0625 Y30.2955
G01 X80.9560 Y30.4420
G01 X80.8782 Y30.5948
G01 X81.3412 Y30.5948
G01 X81.3610 Y30.5683
G01 X81.4088 Y30.5156
G01 X81.4652 Y30.4645
G01 X81.5233 Y30.4214
G01 X81.5843 Y30.3848
G01 X81.6541 Y30.3516
G01 X81.7223 Y30.3273
G01 X81.7913 Y30.3100
G01 X81.8665 Y30.2986
G01 X81.9400 Y30.2950
G01 X82.0111 Y30.2984
G01 X82.0875 Y30.3097
G01 X82.1577 Y30.3273
G01 X82.2270 Y30.3521
G01 X82.2936 Y30.3836
G01 X82.3557 Y30.4207
G01 X82.4158 Y30.4653
G01 X82.4695 Y30.5138
G01 X82.5190 Y30.5683
G01 X82.5388 Y30.5948
G01 X82.8946 Y30.5948
G01 X82.9387 Y30.5970
G01 X82.9824 Y30.6035
G01 X83.0253 Y30.6142
G01 X83.0669 Y30.6291
G01 X83.1079 Y30.6486
G01 X83.1447 Y30.6707
G01 X83.1783 Y30.6955
G01 X83.2121 Y30.7258
G01 X83.5352 Y31.0490
G01 X83.5640 Y31.0808
G01 X83.5903 Y31.1163
G01 X83.6131 Y31.1542
G01 X83.6309 Y31.1919
G01 X83.6468 Y31.2357
G01 X83.6576 Y31.2786
G01 X83.6640 Y31.3223
G01 X83.6662 Y31.3664
G01 X83.6662 Y34.3222
G01 X83.6640 Y34.3651
G01 X83.6580 Y34.4064
G01 X83.6461 Y34.4540
G01 X83.6319 Y34.4933
G01 X83.6131 Y34.5332
G01 X83.5903 Y34.5711
G01 X83.5648 Y34.6057
G01 X83.5344 Y34.6394
G01 X71.4754 Y46.6984
G01 X71.4426 Y46.7280
G01 X71.4071 Y46.7543
G01 X71.3692 Y46.7771
G01 X71.3282 Y46.7964
G01 X71.2877 Y46.8108
G01 X71.2448 Y46.8216
G01 X71.2011 Y46.8280
G01 X71.1570 Y46.8302
G01 X59.4609 Y46.8302
G01 X59.4411 Y46.8567
G01 X59.3916 Y46.9112
G01 X59.3379 Y46.9598
G01 X59.2798 Y47.0029
G01 X59.2157 Y47.0415
G01 X59.1514 Y47.0719
G01 X59.0786 Y47.0981
G01 X59.0084 Y47.1156
G01 X58.9356 Y47.1264
G01 X58.8621 Y47.1300
G01 X58.7910 Y47.1266
G01 X58.7134 Y47.1151
G01 X58.6444 Y47.0977
G01 X58.5740 Y47.0724
G01 X58.5064 Y47.0402
G01 X58.4454 Y47.0036
G01 X58.3883 Y46.9613
G01 X58.3318 Y46.9103
G01 X58.2824 Y46.8558
G01 X58.2372 Y46.7946
G01 X58.2007 Y46.7336
G01 X58.1702 Y46.6693
G01 X58.1444 Y46.5977
G01 X58.1261 Y46.5239
G01 X58.1157 Y46.4535
G01 X58.1122 Y46.3825
G01 X58.1157 Y46.3065
G01 X58.1271 Y46.2313
G01 X58.1444 Y46.1623
G01 X58.1683 Y46.0953
G01 X58.2007 Y46.0265
G01 X58.2399 Y45.9613
G01 X58.2824 Y45.9042
G01 X58.3301 Y45.8515
G01 X58.3854 Y45.8010
G01 X58.4454 Y45.7564
G01 X58.5086 Y45.7186
G01 X58.5751 Y45.6871
G01 X58.6444 Y45.6623
G01 X58.7158 Y45.6444
G01 X58.7886 Y45.6336
G01 X58.8621 Y45.6300
G01 X58.9344 Y45.6335
G01 X59.0084 Y45.6444
G01 X59.0798 Y45.6623
G01 X59.1491 Y45.6871
G01 X59.2167 Y45.7192
G01 X59.2788 Y45.7564
G01 X59.3388 Y45.8010
G01 X59.3933 Y45.8506
G01 X59.4411 Y45.9033
G01 X59.4609 Y45.9298
G01 X59.9240 Y45.9298
G01 X59.8461 Y45.7770
G01 X59.7397 Y45.6305
G01 X59.6116 Y45.5025
G01 X59.4651 Y45.3960
G01 X59.3038 Y45.3138
G01 X59.1315 Y45.2578
G01 X58.9527 Y45.2295
G01 X58.7716 Y45.2295
G01 X58.5927 Y45.2578
G01 X58.4205 Y45.3138
G01 X58.3080 Y45.3711
G01 X58.2771 Y45.3827
G01 X58.2674 Y45.3850
G01 X58.2587 Y45.3854
G01 X58.1877 Y45.3823
G01 X58.1803 Y45.3812
G01 X58.1743 Y45.3795
G01 X58.1675 Y45.3765
G01 X58.1622 Y45.3733
G01 X58.1051 Y45.3330
G01 X58.0976 Y45.3265
G01 X58.0922 Y45.3197
G01 X58.0881 Y45.3121
G01 X58.0604 Y45.2439
G01 X58.0588 Y45.2379
G01 X58.0578 Y45.2318
G01 X58.0577 Y45.2256
G01 X58.0585 Y45.2182
G01 X58.0714 Y45.1495
G01 X58.0736 Y45.1415
G01 X58.0760 Y45.1360
G01 X58.1323 Y45.0256
G01 X58.1882 Y44.8534
G01 X58.2166 Y44.6745
G01 X58.2166 Y44.4934
G01 X58.1882 Y44.3146
G01 X58.1323 Y44.1423
G01 X58.0501 Y43.9810
G01 X57.9436 Y43.8345
G01 X57.8156 Y43.7064
G01 X57.6691 Y43.6000
G01 X57.5077 Y43.5178
G01 X57.3355 Y43.4618
G01 X57.1566 Y43.4335
G01 X56.9755 Y43.4335
G01 X56.7967 Y43.4618
G01 X56.6244 Y43.5178
G01 X56.4631 Y43.6000
G01 X56.3968 Y43.6481
G01 X56.3906 Y43.6520
G01 X56.3310 Y43.6764
G01 X56.3218 Y43.6792
G01 X56.3134 Y43.6801
G01 X56.3050 Y43.6796
G01 X56.2347 Y43.6694
G01 X56.2286 Y43.6680
G01 X56.2228 Y43.6659
G01 X56.2162 Y43.6624
G01 X56.2103 Y43.6579
G01 X56.1565 Y43.6114
G01 X56.1522 Y43.6069
G01 X56.1478 Y43.6009
G01 X56.1448 Y43.5954
G01 X56.1426 Y43.5897
G01 X56.1225 Y43.5214
G01 X56.1210 Y43.5145
G01 X56.1205 Y43.5074
G01 X56.1205 Y40.0001
G01 X56.1208 Y39.9947
G01 X56.1240 Y39.9659
G01 X56.1253 Y39.9599
G01 X56.1278 Y39.9530
G01 X56.1635 Y39.8874
G01 X56.1675 Y39.8815
G01 X56.1715 Y39.8770
G01 X61.9710 Y34.0775
G01 X61.9966 Y34.0565
G01 X62.0017 Y34.0531
G01 X62.0072 Y34.0503
G01 X62.0129 Y34.0482
G01 X62.0823 Y34.0279
G01 X62.0881 Y34.0269
G01 X62.0941 Y34.0265
G01 X80.7588 Y34.0265
G01 X80.7917 Y34.0298
G01 X80.7977 Y34.0310
G01 X80.8036 Y34.0329
G01 X80.8091 Y34.0355
G01 X80.8725 Y34.0701
G01 X80.8774 Y34.0735
G01 X80.8810 Y34.0766
G01 X80.9526 Y34.1482
G01 X81.0920 Y34.2342
G01 X81.2477 Y34.2858
G01 X81.3426 Y34.2955
G01 X82.5375 Y34.2955
G01 X82.6125 Y34.2878
G01 X82.7658 Y34.1345
G01 X82.7658 Y33.7128
G01 X82.7546 Y33.7364
G01 X82.7408 Y33.7596
G01 X82.7219 Y33.7853
G01 X82.7004 Y33.8088
G01 X82.6803 Y33.8269
G01 X82.6587 Y33.8430
G01 X82.6314 Y33.8596
G01 X82.6025 Y33.8731
G01 X82.5771 Y33.8821
G01 X82.5509 Y33.8887
G01 X82.5206 Y33.8934
G01 X82.4900 Y33.8950
G01 X81.3900 Y33.8950
G01 X81.3606 Y33.8936
G01 X81.3315 Y33.8892
G01 X81.3029 Y33.8821
G01 X81.2775 Y33.8731
G01 X81.2486 Y33.8596
G01 X81.2254 Y33.8458
G01 X81.1978 Y33.8253
G01 X81.1779 Y33.8071
G01 X81.1581 Y33.7853
G01 X81.1406 Y33.7617
G01 X81.1254 Y33.7364
G01 X81.1128 Y33.7098
G01 X81.1029 Y33.6821
G01 X81.0958 Y33.6535
G01 X81.0917 Y33.6262
G01 X61.8562 Y33.6262
G01 X55.7202 Y39.7622
G01 X55.7202 Y45.7812
G01 X55.7467 Y45.8010
G01 X55.7995 Y45.8488
G01 X55.8505 Y45.9052
G01 X55.8936 Y45.9633
G01 X55.9302 Y46.0243
G01 X55.9624 Y46.0919
G01 X55.9877 Y46.1623
G01 X56.0060 Y46.2361
G01 X56.0164 Y46.3065
G01 X56.0200 Y46.3776
G01 X56.0164 Y46.4535
G01 X56.0056 Y46.5263
G01 X55.9869 Y46.6001
G01 X55.9629 Y46.6670
G01 X55.9326 Y46.7314
G01 X55.8936 Y46.7967
G01 X55.8498 Y46.8558
G01 X55.7986 Y46.9120
G01 X55.7458 Y46.9598
G01 X55.6887 Y47.0022
G01 X55.6236 Y47.0415
G01 X55.5570 Y47.0729
G01 X55.4854 Y47.0984
G01 X55.4163 Y47.1156
G01 X55.3460 Y47.1261
G01 X55.2700 Y47.1300
G01 X55.1941 Y47.1261
G01 X55.1237 Y47.1156
G01 X55.0547 Y47.0984
G01 X54.9830 Y47.0729
G01 X54.9165 Y47.0415
G01 X54.8513 Y47.0022
G01 X54.7942 Y46.9598
G01 X54.7415 Y46.9120
G01 X54.6903 Y46.8558
G01 X54.6451 Y46.7946
G01 X54.6086 Y46.7336
G01 X54.5781 Y46.6693
G01 X54.5523 Y46.5977
G01 X54.5344 Y46.5263
G01 X54.5239 Y46.4560
G01 X54.5200 Y46.3800
G01 X54.5236 Y46.3065
G01 X54.5350 Y46.2313
G01 X54.5523 Y46.1623
G01 X54.5762 Y46.0953
G01 X54.6080 Y46.0276
G01 X54.6464 Y45.9633
G01 X54.6910 Y45.9033
G01 X54.7406 Y45.8488
G01 X54.7933 Y45.8010
G01 X54.8198 Y45.7812
G01 X54.8198 Y39.5757
G01 X54.8220 Y39.5316
G01 X54.8285 Y39.4879
G01 X54.8392 Y39.4450
G01 X54.8546 Y39.4023
G01 X54.8730 Y39.3635
G01 X54.8957 Y39.3256
G01 X54.9220 Y39.2901
G01 X54.9517 Y39.2574
G01 X61.0330 Y33.1760
G01 X55.7127 Y27.8557
G01 X55.6815 Y27.8210
G01 X55.6567 Y27.7874
G01 X55.6340 Y27.7495
G01 X55.6151 Y27.7096
G01 X55.5995 Y27.6656
G01 X55.5895 Y27.6252
G01 X55.5833 Y27.5839
G01 X55.5808 Y27.5386
G01 X55.5808 Y25.7425
G01 X54.7351 Y24.8968
G01 X54.7023 Y24.9015
G01 X54.6312 Y24.9050
G01 X54.5577 Y24.9015
G01 X54.4837 Y24.8906
G01 X54.4135 Y24.8731
G01 X54.3430 Y24.8479
G01 X54.2765 Y24.8165
G01 X54.2133 Y24.7786
G01 X54.1533 Y24.7340
G01 X54.0997 Y24.6853
G01 X54.0503 Y24.6308
G01 X54.0064 Y24.5717
G01 X53.9698 Y24.5107
G01 X53.9362 Y24.4397
G01 X53.9123 Y24.3727
G01 X53.8940 Y24.2989
G01 X53.8836 Y24.2285
G01 X53.8801 Y24.1575
G01 X53.8836 Y24.0815
G01 X53.8950 Y24.0063
G01 X53.9123 Y23.9373
G01 X53.9366 Y23.8691
G01 X53.9698 Y23.7993
G01 X54.0064 Y23.7383
G01 X54.0495 Y23.6802
G01 X54.1006 Y23.6238
G01 X54.1533 Y23.5760
G01 X54.1798 Y23.5562
G01 X54.1798 Y18.6215
G01 X52.8351 Y17.2768
G01 X52.8023 Y17.2815
G01 X52.7312 Y17.2850
G01 X52.6553 Y17.2813
G01 X52.5837 Y17.2706
G01 X52.5147 Y17.2534
G01 X52.4430 Y17.2279
G01 X52.3743 Y17.1952
G01 X52.3133 Y17.1586
G01 X52.2552 Y17.1155
G01 X52.1988 Y17.0645
G01 X52.1510 Y17.0117
G01 X52.1312 Y16.9852
G01 X41.4865 Y16.9852
G01 X41.4068 Y17.0649
G01 X41.4115 Y17.0977
G01 X41.4150 Y17.1688
G01 X41.4115 Y17.2423
G01 X41.4006 Y17.3163
G01 X41.3831 Y17.3865
G01 X41.3579 Y17.4570
G01 X41.3265 Y17.5236
G01 X41.2886 Y17.5867
G01 X41.2440 Y17.6467
G01 X41.1953 Y17.7003
G01 X41.1408 Y17.7498
G01 X41.0817 Y17.7936
G01 X41.0164 Y17.8326
G01 X40.9497 Y17.8638
G01 X40.8827 Y17.8877
G01 X40.8137 Y17.9051
G01 X40.7385 Y17.9164
G01 X40.6662 Y17.9200
G01 X40.5915 Y17.9164
G01 X40.5163 Y17.9051
G01 X40.4473 Y17.8877
G01 X40.3803 Y17.8638
G01 X40.3126 Y17.8320
G01 X40.2483 Y17.7936
G01 X40.1883 Y17.7490
G01 X40.1338 Y17.6995
G01 X40.0860 Y17.6467
G01 X40.0662 Y17.6202
G01 X21.6150 Y17.6202
G01 X21.5684 Y17.6177
G01 X21.5272 Y17.6116
G01 X21.4843 Y17.6008
G01 X21.4427 Y17.5859
G01 X21.4050 Y17.5682
G01 X21.3629 Y17.5429
G01 X21.3294 Y17.5180
G01 X21.2967 Y17.4884
G01 X15.3701 Y11.5618
G01 X15.3373 Y11.5665
G01 X15.2650 Y11.5700
G01 X15.1927 Y11.5665
G01 X15.1599 Y11.5618
G01 X10.6352 Y16.0865
G01 X10.6352 Y31.1762
G01 X10.6617 Y31.1960
G01 X10.7145 Y31.2438
G01 X10.7655 Y31.3002
G01 X10.8086 Y31.3583
G01 X10.8452 Y31.4193
G01 X10.8774 Y31.4869
G01 X10.9027 Y31.5573
G01 X10.9210 Y31.6311
G01 X10.9314 Y31.7015
G01 X10.9350 Y31.7726
G01 X10.9315 Y31.8473
G01 X10.9206 Y31.9213
G01 X10.9034 Y31.9904
G01 X10.8769 Y32.0643
G01 X10.8465 Y32.1286
G01 X10.8086 Y32.1917
G01 X10.7648 Y32.2508
G01 X10.7153 Y32.3053
G01 X10.6608 Y32.3548
G01 X10.6037 Y32.3972
G01 X10.5364 Y32.4376
G01 X10.4720 Y32.4679
G01 X10.4027 Y32.4927
G01 X10.3313 Y32.5106
G01 X10.2610 Y32.5211
G01 X10.1826 Y32.5250
G01 X10.1115 Y32.5214
G01 X10.0387 Y32.5106
G01 X9.9673 Y32.4927
G01 X9.9003 Y32.4688
G01 X9.8293 Y32.4352
G01 X9.7683 Y32.3986
G01 X9.7092 Y32.3548
G01 X9.6547 Y32.3053
G01 X9.6069 Y32.2527
G01 X9.5601 Y32.1896
G01 X9.5236 Y32.1286
G01 X9.4916 Y32.0609
G01 X9.4673 Y31.9927
G01 X9.4494 Y31.9213
G01 X9.4386 Y31.8485
G01 X9.4351 Y31.7775
G01 X9.4389 Y31.6991
G01 X9.4494 Y31.6287
G01 X9.4670 Y31.5585
G01 X9.4931 Y31.4858
G01 X9.5236 Y31.4215
G01 X9.5621 Y31.3573
G01 X9.6053 Y31.2992
G01 X9.6538 Y31.2456
G01 X9.7083 Y31.1960
G01 X9.7348 Y31.1762
G01 X9.7348 Y15.9000
G01 X9.7373 Y15.8534
G01 X9.7435 Y15.8122
G01 X9.7535 Y15.7717
G01 X9.7691 Y15.7277
G01 X9.7892 Y15.6857
G01 X9.8107 Y15.6499
G01 X9.8355 Y15.6163
G01 X9.8667 Y15.5817
G01 X14.5232 Y10.9251
G01 X14.5185 Y10.8923
G01 X14.5150 Y10.8212
G01 X14.5185 Y10.7477
G01 X14.5294 Y10.6737
G01 X14.5477 Y10.6011
G01 X14.5731 Y10.5308
G01 X14.6036 Y10.4665
G01 X14.6401 Y10.4054
G01 X14.6853 Y10.3442
G01 X14.7338 Y10.2906
G01 X14.7892 Y10.2403
G01 X14.8483 Y10.1964
G01 X14.9115 Y10.1586
G01 X14.9780 Y10.1271
G01 X15.0473 Y10.1023
G01 X15.1187 Y10.0844
G01 X15.1915 Y10.0736
G01 X15.2650 Y10.0700
G01 X15.3385 Y10.0736
G01 X15.4113 Y10.0844
G01 X15.4827 Y10.1023
G01 X15.5520 Y10.1271
G01 X15.6186 Y10.1586
G01 X15.6817 Y10.1964
G01 X15.7408 Y10.2403
G01 X15.7953 Y10.2897
G01 X15.8448 Y10.3442
G01 X15.8899 Y10.4054
G01 X15.9265 Y10.4665
G01 X15.9569 Y10.5308
G01 X15.9823 Y10.6011
G01 X16.0006 Y10.6737
G01 X16.0115 Y10.7477
G01 X16.0150 Y10.8212
G01 X16.0115 Y10.8923
G01 X16.0068 Y10.9251
G01 X21.8015 Y16.7198
G01 X40.0662 Y16.7198
G01 X40.0860 Y16.6933
G01 X40.1338 Y16.6406
G01 X40.1902 Y16.5895
G01 X40.2483 Y16.5464
G01 X40.3093 Y16.5098
G01 X40.3780 Y16.4771
G01 X40.4497 Y16.4517
G01 X40.5187 Y16.4344
G01 X40.5903 Y16.4238
G01 X40.6662 Y16.4200
G01 X40.7373 Y16.4235
G01 X40.7701 Y16.4282
G01 X40.9826 Y16.2158
G01 X41.0144 Y16.1870
G01 X41.0489 Y16.1614
G01 X41.0878 Y16.1380
G01 X41.1300 Y16.1182
G01 X41.1693 Y16.1042
G01 X41.2098 Y16.0940
G01 X41.2571 Y16.0869
G01 X41.3000 Y16.0848
G01 X52.1312 Y16.0848
G01 X52.1510 Y16.0583
G01 X52.2006 Y16.0038
G01 X52.2542 Y15.9553
G01 X52.3144 Y15.9107
G01 X52.3765 Y15.8736
G01 X52.4430 Y15.8421
G01 X52.5123 Y15.8173
G01 X52.5825 Y15.7997
G01 X52.6565 Y15.7886
G01 X52.7276 Y15.7851
G01 X52.8060 Y15.7889
G01 X52.8763 Y15.7994
G01 X52.9477 Y15.8173
G01 X53.0170 Y15.8421
G01 X53.0814 Y15.8725
G01 X53.1487 Y15.9128
G01 X53.2058 Y15.9553
G01 X53.2603 Y16.0047
G01 X53.3098 Y16.0592
G01 X53.3522 Y16.1163
G01 X53.3920 Y16.1826
G01 X53.4229 Y16.2480
G01 X53.4469 Y16.3150
G01 X53.4658 Y16.3899
G01 X53.4764 Y16.4615
G01 X53.4800 Y16.5338
G01 X53.4765 Y16.6073
G01 X53.4718 Y16.6401
G01 X54.9492 Y18.1176
G01 X54.9795 Y18.1513
G01 X55.0043 Y18.1849
G01 X55.0258 Y18.2207
G01 X55.0459 Y18.2627
G01 X55.0608 Y18.3043
G01 X55.0716 Y18.3472
G01 X55.0777 Y18.3884
G01 X55.0802 Y18.4350
G01 X55.0802 Y23.5562
G01 X55.1067 Y23.5760
G01 X55.1595 Y23.6238
G01 X55.2105 Y23.6802
G01 X55.2536 Y23.7383
G01 X55.2902 Y23.7993
G01 X55.3229 Y23.8680
G01 X55.3484 Y23.9397
G01 X55.3656 Y24.0087
G01 X55.3763 Y24.0803
G01 X55.3800 Y24.1562
G01 X55.3765 Y24.2273
G01 X55.3718 Y24.2601
G01 X56.3502 Y25.2386
G01 X56.3790 Y25.2704
G01 X56.4053 Y25.3059
G01 X56.4281 Y25.3438
G01 X56.4478 Y25.3860
G01 X56.4618 Y25.4253
G01 X56.4726 Y25.4682
G01 X56.4790 Y25.5119
G01 X56.4812 Y25.5548
G01 X56.4812 Y27.3508
G01 X61.8562 Y32.7258
G01 X81.0900 Y32.7258
G01 X81.0900 Y32.4950
G01 X81.0914 Y32.4668
G01 X81.0958 Y32.4365
G01 X81.1023 Y32.4103
G01 X81.1138 Y32.3780
G01 X81.1254 Y32.3536
G01 X81.1393 Y32.3304
G01 X81.1566 Y32.3066
G01 X81.1779 Y32.2829
G01 X81.1997 Y32.2631
G01 X81.2233 Y32.2456
G01 X81.2508 Y32.2293
G01 X81.2752 Y32.2178
G01 X81.3006 Y32.2087
G01 X81.3315 Y32.2008
G01 X81.3606 Y32.1965
G01 X81.3900 Y32.1950
G01 X82.4900 Y32.1950
G01 X82.5206 Y32.1966
G01 X82.5509 Y32.2013
G01 X82.5771 Y32.2079
G01 X82.6025 Y32.2170
G01 X82.6314 Y32.2304
G01 X82.6587 Y32.2470
G01 X82.6803 Y32.2631
G01 X82.7004 Y32.2812
G01 X82.7219 Y32.3047
G01 X82.7408 Y32.3304
G01 X82.7546 Y32.3536
G01 X82.7658 Y32.3772
G01 X82.7658 Y31.5529
G01 X82.7081 Y31.4952
G01 X82.5388 Y31.4952
G01 X82.5190 Y31.5217
G01 X82.4712 Y31.5745
G01 X82.4167 Y31.6240
G01 X82.3567 Y31.6686
G01 X82.2925 Y31.7070
G01 X82.2247 Y31.7388
G01 X82.1577 Y31.7627
G01 X82.0887 Y31.7801
G01 X82.0135 Y31.7914
G01 X81.9400 Y31.7950
G01 X81.8665 Y31.7914
G01 X81.7913 Y31.7801
G01 X81.7223 Y31.7627
G01 X81.6553 Y31.7388
G01 X81.5876 Y31.7070
G01 X81.5233 Y31.6686
G01 X81.4633 Y31.6240
G01 X81.4088 Y31.5745
G01 X81.3610 Y31.5217
G01 X81.3412 Y31.4952
G01 X80.8782 Y31.4952
G01 X80.9560 Y31.6480
G01 X80.9920 Y31.6976
G01 X80.9960 Y31.7040
G01 X81.0216 Y31.7684
G01 X81.0230 Y31.7731
G01 X81.0240 Y31.7791
G01 X81.0243 Y31.7840
G01 X81.0240 Y31.7901
G01 X81.0124 Y31.8615
G01 X81.0103 Y31.8699
G01 X81.0073 Y31.8767
G01 X81.0026 Y31.8840
G01 X80.9732 Y31.9169
G01 X80.9688 Y31.9253
G01 X80.9635 Y31.9321
G01 X80.9599 Y31.9355
G01 X80.9547 Y31.9397
G01 X80.8368 Y32.0576
G01 X80.7508 Y32.1970
G01 X80.7473 Y32.2075
G01 X80.7419 Y32.2213
G01 X80.7375 Y32.2299
G01 X80.7332 Y32.2358
G01 X80.6857 Y32.2904
G01 X80.6821 Y32.2938
G01 X80.6772 Y32.2976
G01 X80.6718 Y32.3006
G01 X80.6661 Y32.3030
G01 X80.5955 Y32.3238
G01 X80.5885 Y32.3252
G01 X80.5826 Y32.3255
G01 X63.5175 Y32.3254
G01 X63.4925 Y32.3232
G01 X63.4864 Y32.3220
G01 X63.4805 Y32.3201
G01 X63.4133 Y32.2872
G01 X63.4050 Y32.2817
G01 X63.3988 Y32.2757
G01 X63.3943 Y32.2697
G01 X63.3576 Y32.2089
G01 X63.3533 Y32.1999
G01 X63.3511 Y32.1915
G01 X63.3504 Y32.1816
G01 X63.3524 Y32.1118
G01 X63.3530 Y32.1058
G01 X63.3549 Y32.0977
G01 X63.3722 Y32.0444
G01 X63.4005 Y31.8656
G01 X63.4005 Y31.6845
G01 X63.3722 Y31.5056
G01 X63.3688 Y31.4952
G01 X63.1665 Y31.4952
G01 X62.9918 Y31.6699
G01 X62.9965 Y31.7027
G01 X63.0000 Y31.7762
G01 X62.9964 Y31.8485
G01 X62.9858 Y31.9201
G01 X62.9677 Y31.9927
G01 X62.9438 Y32.0597
G01 X62.9109 Y32.1296
G01 X62.8736 Y32.1917
G01 X62.8282 Y32.2527
G01 X62.7786 Y32.3070
G01 X62.7258 Y32.3548
G01 X62.6687 Y32.3972
G01 X62.6036 Y32.4365
G01 X62.5347 Y32.4688
G01 X62.4677 Y32.4927
G01 X62.3987 Y32.5101
G01 X62.3211 Y32.5216
G01 X62.2500 Y32.5250
G01 X62.1789 Y32.5216
G01 X62.1037 Y32.5106
G01 X62.0323 Y32.4927
G01 X61.9653 Y32.4688
G01 X61.8954 Y32.4359
G01 X61.8333 Y32.3986
G01 X61.7762 Y32.3563
G01 X61.7197 Y32.3053
G01 X61.6703 Y32.2508
G01 X61.6278 Y32.1937
G01 X61.5880 Y32.1275
G01 X61.5571 Y32.0620
G01 X61.5331 Y31.9951
G01 X61.5142 Y31.9201
G01 X61.5036 Y31.8485
G01 X61.5000 Y31.7762
G01 X61.5035 Y31.7027
G01 X61.5082 Y31.6699
G01 X61.1449 Y31.3065
G01 X61.1398 Y31.3080
G01 X61.1337 Y31.3089
G01 X61.0627 Y31.3140
G01 X61.0553 Y31.3140
G01 X61.0479 Y31.3129
G01 X61.0420 Y31.3111
G01 X61.0352 Y31.3080
G01 X60.9728 Y31.2740
G01 X60.9679 Y31.2707
G01 X60.9633 Y31.2669
G01 X56.9325 Y27.2360
G01 X56.9115 Y27.2104
G01 X56.9069 Y27.2032
G01 X56.9032 Y27.1941
G01 X56.8835 Y27.1271
G01 X56.8820 Y27.1201
G01 X56.8815 Y27.1130
G01 X56.8815 Y27.0209
G01 X56.8735 Y27.0073
G01 X56.8557 Y26.9695
G01 X56.8400 Y26.9256
G01 X56.8292 Y26.8815
G01 X56.8231 Y26.8402
G01 X56.8210 Y26.7986
G01 X56.8209 Y25.2406
G01 X56.7847 Y25.1531
G01 X56.6916 Y25.0138
G01 X55.8277 Y24.1499
G01 X55.8210 Y24.1428
G01 X55.8173 Y24.1381
G01 X55.8130 Y24.1308
G01 X55.7831 Y24.0677
G01 X55.7801 Y24.0599
G01 X55.7789 Y24.0541
G01 X55.7522 Y23.8856
G01 X55.6962 Y23.7134
G01 X55.6140 Y23.5520
G01 X55.5137 Y23.4140
G01 X55.5064 Y23.4029
G01 X55.5038 Y23.3974
G01 X55.5022 Y23.3929
G01 X55.4825 Y23.3258
G01 X55.4812 Y23.3200
G01 X55.4805 Y23.3117
G01 X55.4805 Y18.3512
G01 X55.4478 Y18.1869
G01 X55.3837 Y18.0321
G01 X55.2906 Y17.8928
G01 X53.9277 Y16.5299
G01 X53.9187 Y16.5201
G01 X53.9153 Y16.5151
G01 X53.9130 Y16.5108
G01 X53.8831 Y16.4477
G01 X53.8801 Y16.4399
G01 X53.8789 Y16.4341
G01 X53.8522 Y16.2656
G01 X53.7962 Y16.0934
G01 X53.7140 Y15.9320
G01 X53.6076 Y15.7855
G01 X53.4795 Y15.6575
G01 X53.3330 Y15.5510
G01 X53.1717 Y15.4688
G01 X52.9994 Y15.4128
G01 X52.8206 Y15.3845
G01 X52.6395 Y15.3845
G01 X52.4606 Y15.4128
G01 X52.2884 Y15.4688
G01 X52.1270 Y15.5510
G01 X51.9890 Y15.6513
G01 X51.9779 Y15.6586
G01 X51.9690 Y15.6624
G01 X51.9008 Y15.6825
G01 X51.8939 Y15.6840
G01 X51.8879 Y15.6845
G01 X41.2162 Y15.6845
G01 X41.0519 Y15.7172
G01 X40.8971 Y15.7813
G01 X40.7579 Y15.8744
G01 X40.6589 Y15.9734
G01 X40.6501 Y15.9813
G01 X40.6419 Y15.9865
G01 X40.5777 Y16.0170
G01 X40.5699 Y16.0199
G01 X40.5641 Y16.0212
G01 X40.3956 Y16.0478
G01 X40.2234 Y16.1038
G01 X40.0620 Y16.1860
G01 X39.9240 Y16.2863
G01 X39.9129 Y16.2936
G01 X39.9040 Y16.2974
G01 X39.8358 Y16.3175
G01 X39.8300 Y16.3188
G01 X39.8229 Y16.3195
G01 X22.0394 Y16.3195
G01 X22.0340 Y16.3192
G01 X22.0052 Y16.3161
G01 X21.9969 Y16.3140
G01 X21.9891 Y16.3106
G01 X21.9267 Y16.2765
G01 X21.9217 Y16.2732
G01 X21.9163 Y16.2685
G01 X16.4627 Y10.8149
G01 X16.4552 Y10.8069
G01 X16.4516 Y10.8021
G01 X16.4480 Y10.7958
G01 X16.4181 Y10.7327
G01 X16.4151 Y10.7249
G01 X16.4139 Y10.7191
G01 X16.3872 Y10.5506
G01 X16.3312 Y10.3784
G01 X16.2490 Y10.2170
G01 X16.2157 Y10.1711
G01 X16.2066 Y10.1570
G01 X16.2043 Y10.1527
G01 X16.2024 Y10.1482
G01 X16.2006 Y10.1423
G01 X16.1839 Y10.0694
G01 X16.1835 Y10.0644
G01 X16.1837 Y10.0582
G01 X16.1856 Y10.0485
G01 X16.2117 Y9.9759
G01 X16.2158 Y9.9687
G01 X16.2490 Y9.9230
G01 X16.3269 Y9.7702
G01 X15.8638 Y9.7702
G01 X15.8440 Y9.7967
G01 X15.7962 Y9.8495
G01 X15.7417 Y9.8990
G01 X15.6817 Y9.9436
G01 X15.6175 Y9.9820
G01 X15.5497 Y10.0138
G01 X15.4827 Y10.0377
G01 X15.4137 Y10.0551
G01 X15.3385 Y10.0664
G01 X15.2650 Y10.0700
G01 X15.1915 Y10.0664
G01 X15.1163 Y10.0551
G01 X15.0473 Y10.0377
G01 X14.9803 Y10.0138
G01 X14.9126 Y9.9820
G01 X14.8483 Y9.9436
G01 X14.7883 Y9.8990
G01 X14.7338 Y9.8495
G01 X14.6860 Y9.7967
G01 X14.6662 Y9.7702
G01 X14.2032 Y9.7702
G01 X14.2810 Y9.9230
G01 X14.3143 Y9.9689
G01 X14.3234 Y9.9830
G01 X14.3263 Y9.9885
G01 X14.3294 Y9.9977
G01 X14.3455 Y10.0670
G01 X14.3465 Y10.0744
G01 X14.3462 Y10.0830
G01 X14.3451 Y10.0891
G01 X14.3436 Y10.0939
G01 X14.3202 Y10.1597
G01 X14.3178 Y10.1652
G01 X14.3135 Y10.1723
G01 X14.2810 Y10.2170
G01 X14.1988 Y10.3784
G01 X14.1428 Y10.5506
G01 X14.1162 Y10.7191
G01 X14.1135 Y10.7322
G01 X14.1115 Y10.7378
G01 X14.1093 Y10.7422
G01 X14.0759 Y10.8035
G01 X14.0705 Y10.8114
G01 X9.5244 Y15.3579
G01 X9.4313 Y15.4971
G01 X9.3672 Y15.6519
G01 X9.3345 Y15.8162
G01 X9.3345 Y30.9332
G01 X9.3339 Y30.9451
G01 X9.3322 Y30.9533
G01 X9.3079 Y31.0214
G01 X9.3051 Y31.0280
G01 X9.3013 Y31.0340
G01 X9.2010 Y31.1720
G01 X9.1188 Y31.3334
G01 X9.0628 Y31.5056
G01 X9.0345 Y31.6845
G01 X9.0345 Y31.8656
G01 X9.0628 Y32.0444
G01 X9.1188 Y32.2167
G01 X9.2010 Y32.3780
G01 X9.2621 Y32.4620
G01 X9.3075 Y32.5245
G01 X9.4355 Y32.6526
G01 X9.5820 Y32.7590
G01 X9.7434 Y32.8412
G01 X9.9156 Y32.8972
G01 X10.0945 Y32.9255
G01 X10.2756 Y32.9255
G01 X10.4544 Y32.8972
G01 X10.6267 Y32.8412
G01 X10.7880 Y32.7590
G01 X10.9345 Y32.6526
G01 X11.0626 Y32.5245
G01 X11.1690 Y32.3780
G01 X11.2512 Y32.2166
G01 X11.3072 Y32.0444
G01 X11.3355 Y31.8656
G01 X11.3355 Y31.6845
G01 X11.3072 Y31.5056
G01 X11.2512 Y31.3334
G01 X11.1690 Y31.1720
G01 X11.0687 Y31.0340
G01 X11.0614 Y31.0229
G01 X11.0576 Y31.0140
G01 X11.0375 Y30.9458
G01 X11.0360 Y30.9389
G01 X11.0355 Y30.9329
G01 X11.0355 Y16.3244
G01 X11.0388 Y16.2915
G01 X11.0406 Y16.2831
G01 X11.0445 Y16.2741
G01 X11.0779 Y16.2127
G01 X11.0818 Y16.2067
G01 X11.0865 Y16.2013
G01 X15.1420 Y12.1458
G01 X15.1493 Y12.1398
G01 X15.1946 Y12.1106
G01 X15.2001 Y12.1076
G01 X15.2059 Y12.1053
G01 X15.2119 Y12.1037
G01 X15.2169 Y12.1029
G01 X15.2878 Y12.0978
G01 X15.2952 Y12.0979
G01 X15.3026 Y12.0990
G01 X15.3086 Y12.1008
G01 X15.3153 Y12.1038
G01 X15.3777 Y12.1379
G01 X15.3827 Y12.1412
G01 X15.3872 Y12.1450
G01 X21.0728 Y17.8306
G01 X21.2122 Y17.9237
G01 X21.2896 Y17.9558
G01 X21.3669 Y17.9878
G01 X21.5312 Y18.0205
G01 X39.8232 Y18.0205
G01 X39.8351 Y18.0211
G01 X39.8433 Y18.0229
G01 X39.9114 Y18.0471
G01 X39.9180 Y18.0500
G01 X39.9240 Y18.0537
G01 X40.0620 Y18.1540
G01 X40.2234 Y18.2362
G01 X40.3956 Y18.2922
G01 X40.5745 Y18.3205
G01 X40.7556 Y18.3205
G01 X40.9344 Y18.2922
G01 X41.1067 Y18.2362
G01 X41.2680 Y18.1540
G01 X41.4145 Y18.0476
G01 X41.5426 Y17.9195
G01 X41.6490 Y17.7730
G01 X41.7312 Y17.6117
G01 X41.7661 Y17.5044
G01 X41.7732 Y17.4865
G01 X41.7755 Y17.4822
G01 X41.7790 Y17.4771
G01 X41.8271 Y17.4215
G01 X41.8325 Y17.4164
G01 X41.8376 Y17.4128
G01 X41.8442 Y17.4093
G01 X41.8500 Y17.4072
G01 X41.9170 Y17.3875
G01 X41.9264 Y17.3857
G01 X51.8867 Y17.3855
G01 X51.8989 Y17.3860
G01 X51.9072 Y17.3875
G01 X51.9764 Y17.4121
G01 X51.9840 Y17.4155
G01 X51.9890 Y17.4187
G01 X52.1270 Y17.5190
G01 X52.2884 Y17.6012
G01 X52.4606 Y17.6572
G01 X52.6291 Y17.6839
G01 X52.6421 Y17.6865
G01 X52.6467 Y17.6881
G01 X52.6522 Y17.6907
G01 X52.7135 Y17.7242
G01 X52.7205 Y17.7287
G01 X52.7249 Y17.7327
G01 X53.7295 Y18.7373
G01 X53.7503 Y18.7629
G01 X53.7529 Y18.7670
G01 X53.7557 Y18.7725
G01 X53.7578 Y18.7782
G01 X53.7775 Y18.8453
G01 X53.7792 Y18.8534
G01 X53.7795 Y18.8594
G01 X53.7795 Y23.3117
G01 X53.7792 Y23.3215
G01 X53.7786 Y23.3275
G01 X53.7768 Y23.3345
G01 X53.7529 Y23.4014
G01 X53.7495 Y23.4090
G01 X53.7463 Y23.4140
G01 X53.6460 Y23.5520
G01 X53.5638 Y23.7134
G01 X53.5078 Y23.8856
G01 X53.4795 Y24.0645
G01 X53.4795 Y24.2456
G01 X53.5078 Y24.4244
G01 X53.5638 Y24.5967
G01 X53.6460 Y24.7580
G01 X53.7525 Y24.9045
G01 X53.8805 Y25.0326
G01 X54.0270 Y25.1390
G01 X54.1884 Y25.2212
G01 X54.3084 Y25.2603
G01 X54.3384 Y25.2739
G01 X54.3428 Y25.2763
G01 X54.3479 Y25.2799
G01 X54.3534 Y25.2850
G01 X54.4014 Y25.3374
G01 X54.4052 Y25.3423
G01 X54.4089 Y25.3488
G01 X54.4116 Y25.3557
G01 X54.4130 Y25.3618
G01 X54.4250 Y25.4306
G01 X54.4257 Y25.4405
G01 X54.4247 Y25.4491
G01 X54.4222 Y25.4575
G01 X54.3935 Y25.5252
G01 X54.3905 Y25.5306
G01 X54.3868 Y25.5356
G01 X54.3825 Y25.5401
G01 X54.3767 Y25.5448
G01 X54.3190 Y25.5842
G01 X54.3118 Y25.5883
G01 X54.3063 Y25.5905
G01 X54.1884 Y25.6288
G01 X54.0270 Y25.7110
G01 X53.8805 Y25.8175
G01 X53.7525 Y25.9455
G01 X53.6460 Y26.0920
G01 X53.5638 Y26.2534
G01 X53.5078 Y26.4256
G01 X53.4795 Y26.6045
G01 X53.4795 Y26.7856
G01 X53.5078 Y26.9644
G01 X53.5638 Y27.1367
G01 X53.6460 Y27.2980
G01 X53.7525 Y27.4445
G01 X53.8805 Y27.5726
G01 X54.0270 Y27.6790
G01 X54.1884 Y27.7612
G01 X54.3084 Y27.8003
G01 X54.3384 Y27.8139
G01 X54.3428 Y27.8163
G01 X54.3479 Y27.8199
G01 X54.3534 Y27.8250
G01 X54.4014 Y27.8774
G01 X54.4059 Y27.8834
G01 X54.4089 Y27.8888
G01 X54.4116 Y27.8957
G01 X54.4130 Y27.9018
G01 X54.4250 Y27.9706
G01 X54.4257 Y27.9805
G01 X54.4247 Y27.9891
G01 X54.4222 Y27.9975
G01 X54.3935 Y28.0652
G01 X54.3905 Y28.0706
G01 X54.3868 Y28.0756
G01 X54.3825 Y28.0801
G01 X54.3767 Y28.0848
G01 X54.3190 Y28.1242
G01 X54.3118 Y28.1283
G01 X54.3063 Y28.1305
G01 X54.1884 Y28.1688
G01 X54.0270 Y28.2510
G01 X53.8805 Y28.3575
G01 X53.7525 Y28.4855
G01 X53.6460 Y28.6320
G01 X53.5638 Y28.7934
G01 X53.5078 Y28.9656
G01 X53.4795 Y29.1445
G01 X53.4795 Y29.3256
G01 X53.5078 Y29.5044
G01 X53.5638 Y29.6767
G01 X53.6460 Y29.8380
G01 X53.7525 Y29.9845
G01 X53.8805 Y30.1126
G01 X54.0270 Y30.2190
G01 X54.1884 Y30.3012
G01 X54.3084 Y30.3403
G01 X54.3384 Y30.3539
G01 X54.3428 Y30.3563
G01 X54.3479 Y30.3599
G01 X54.3534 Y30.3650
G01 X54.4014 Y30.4174
G01 X54.4052 Y30.4223
G01 X54.4089 Y30.4288
G01 X54.4116 Y30.4357
G01 X54.4130 Y30.4418
G01 X54.4250 Y30.5106
G01 X54.4257 Y30.5193
G01 X54.4249 Y30.5279
G01 X54.4227 Y30.5363
G01 X54.3940 Y30.6041
G01 X54.3905 Y30.6106
G01 X54.3868 Y30.6156
G01 X54.3825 Y30.6201
G01 X54.3767 Y30.6248
G01 X54.3190 Y30.6642
G01 X54.3118 Y30.6683
G01 X54.3063 Y30.6705
G01 X54.1884 Y30.7088
G01 X54.0270 Y30.7910
G01 X53.8805 Y30.8975
G01 X53.7525 Y31.0255
G01 X53.6460 Y31.1720
G01 X53.5638 Y31.3334
G01 X53.5078 Y31.5056
G01 X53.4795 Y31.6845
G01 X53.4795 Y31.8656
G01 X53.5078 Y32.0444
G01 X53.5638 Y32.2167
G01 X53.6460 Y32.3780
G01 X53.7525 Y32.5245
G01 X53.8805 Y32.6526
G01 X54.0270 Y32.7590
G01 X54.1884 Y32.8412
G01 X54.3606 Y32.8972
G01 X54.5395 Y32.9255
G01 X54.7206 Y32.9255
G01 X54.8994 Y32.8972
G01 X55.0717 Y32.8412
G01 X55.2330 Y32.7590
G01 X55.3795 Y32.6526
G01 X55.5076 Y32.5245
G01 X55.6140 Y32.3780
G01 X55.6962 Y32.2166
G01 X55.7522 Y32.0444
G01 X55.7805 Y31.8656
G01 X55.7805 Y31.6845
G01 X55.7522 Y31.5056
G01 X55.6962 Y31.3334
G01 X55.6140 Y31.1720
G01 X55.5076 Y31.0255
G01 X55.3795 Y30.8975
G01 X55.2330 Y30.7910
G01 X55.0717 Y30.7088
G01 X54.9516 Y30.6697
G01 X54.9216 Y30.6561
G01 X54.9131 Y30.6509
G01 X54.9067 Y30.6450
G01 X54.8586 Y30.5926
G01 X54.8541 Y30.5867
G01 X54.8511 Y30.5812
G01 X54.8488 Y30.5755
G01 X54.8470 Y30.5683
G01 X54.8349 Y30.4982
G01 X54.8343 Y30.4920
G01 X54.8345 Y30.4870
G01 X54.8356 Y30.4797
G01 X54.8378 Y30.4726
G01 X54.8665 Y30.4048
G01 X54.8695 Y30.3994
G01 X54.8732 Y30.3944
G01 X54.8775 Y30.3899
G01 X54.8833 Y30.3852
G01 X54.9410 Y30.3458
G01 X54.9482 Y30.3417
G01 X54.9538 Y30.3395
G01 X55.0717 Y30.3012
G01 X55.2330 Y30.2190
G01 X55.3795 Y30.1126
G01 X55.5076 Y29.9845
G01 X55.6140 Y29.8380
G01 X55.6962 Y29.6767
G01 X55.7522 Y29.5044
G01 X55.7805 Y29.3256
G01 X55.7805 Y29.1445
G01 X55.7522 Y28.9656
G01 X55.7334 Y28.9079
G01 X55.7317 Y28.9008
G01 X55.7253 Y28.8488
G01 X55.7254 Y28.8412
G01 X55.7269 Y28.8326
G01 X55.7532 Y28.7611
G01 X55.7559 Y28.7555
G01 X55.7592 Y28.7503
G01 X55.7641 Y28.7446
G01 X55.7687 Y28.7405
G01 X55.8256 Y28.6979
G01 X55.8308 Y28.6945
G01 X55.8364 Y28.6917
G01 X55.8422 Y28.6897
G01 X55.8483 Y28.6884
G01 X55.9217 Y28.6830
G01 X55.9304 Y28.6832
G01 X55.9401 Y28.6852
G01 X55.9481 Y28.6884
G01 X56.0116 Y28.7231
G01 X56.0175 Y28.7271
G01 X56.0219 Y28.7310
G01 X60.3439 Y33.0530
G01 X60.3499 Y33.0603
G01 X60.3804 Y33.1078
G01 X60.3831 Y33.1134
G01 X60.3848 Y33.1181
G01 X60.3861 Y33.1229
G01 X60.3869 Y33.1291
G01 X60.3919 Y33.2000
G01 X60.3917 Y33.2075
G01 X60.3904 Y33.2148
G01 X60.3890 Y33.2196
G01 X60.3865 Y33.2252
G01 X60.3524 Y33.2877
G01 X60.3492 Y33.2927
G01 X60.3447 Y33.2982
G01 X54.6094 Y39.0335
G01 X54.5163 Y39.1728
G01 X54.4522 Y39.3276
G01 X54.4195 Y39.4919
G01 X54.4195 Y45.5367
G01 X54.4192 Y45.5465
G01 X54.4183 Y45.5536
G01 X54.4168 Y45.5595
G01 X54.3929 Y45.6264
G01 X54.3895 Y45.6340
G01 X54.3863 Y45.6390
G01 X54.2860 Y45.7770
G01 X54.2038 Y45.9384
G01 X54.1478 Y46.1106
G01 X54.1195 Y46.2895
G01 X54.1195 Y46.4706
G01 X54.1478 Y46.6494
G01 X54.2038 Y46.8217
G01 X54.2860 Y46.9830
G01 X54.3925 Y47.1295
G01 X54.5205 Y47.2576
G01 X54.6670 Y47.3640
G01 X54.8284 Y47.4462
G01 X55.0006 Y47.5022
G01 X55.1795 Y47.5305
G01 X55.3606 Y47.5305
G01 X55.5394 Y47.5022
G01 X55.7117 Y47.4462
G01 X55.8730 Y47.3640
G01 X56.0195 Y47.2576
G01 X56.1476 Y47.1295
G01 X56.2481 Y46.9912
G01 X56.2520 Y46.9865
G01 X56.2574 Y46.9816
G01 X56.3153 Y46.9383
G01 X56.3216 Y46.9344
G01 X56.3297 Y46.9312
G01 X56.3394 Y46.9293
G01 X56.4116 Y46.9241
G01 X56.4215 Y46.9246
G01 X56.4311 Y46.9271
G01 X56.4379 Y46.9302
G01 X56.5002 Y46.9642
G01 X56.5052 Y46.9675
G01 X56.5097 Y46.9713
G01 X57.8101 Y48.2716
G01 X57.9494 Y48.3647
G01 X58.1041 Y48.4288
G01 X58.2684 Y48.4615
G01 X71.4254 Y48.4615
G01 X71.5897 Y48.4288
G01 X71.7445 Y48.3647
G01 X71.8838 Y48.2716
G01 X84.8776 Y35.2778
G01 X84.9708 Y35.1384
G01 X85.0348 Y34.9837
G01 X85.0675 Y34.8194
G01 X85.0675 Y30.2837
G01 X85.0348 Y30.1193
G01 X84.9707 Y29.9646
G01 X84.8776 Y29.8253
G01 X83.4368 Y28.3844
G01 X83.2975 Y28.2913
G01 X83.1469 Y28.2288
G01 X83.1102 Y28.2070
G01 X83.1035 Y28.2013
G01 X83.0973 Y28.1938
G01 X83.0918 Y28.1898
G01 X83.0881 Y28.1865
G01 X83.0832 Y28.1810
G01 X83.0798 Y28.1759
G01 X83.0693 Y28.1535
G01 X83.0573 Y28.1362
G01 X83.0547 Y28.1319
G01 X83.0522 Y28.1262
G01 X83.0507 Y28.1215
G01 X83.0495 Y28.1154
G01 X83.0490 Y28.1091
G01 X83.0456 Y28.0997
G01 X83.0444 Y28.0937
G01 X83.0440 Y28.0887
G01 X83.0443 Y28.0813
G01 X83.0473 Y28.0604
G01 X83.0465 Y28.0381
G01 X83.0477 Y28.0283
G01 X83.0502 Y28.0200
G01 X83.0542 Y28.0122
G01 X83.0554 Y28.0060
G01 X83.0572 Y28.0001
G01 X83.0610 Y27.9923
G01 X83.0653 Y27.9862
G01 X83.0791 Y27.9703
G01 X83.0905 Y27.9511
G01 X83.0943 Y27.9462
G01 X83.0977 Y27.9426
G01 X83.1034 Y27.9379
G01 X83.1110 Y27.9335
G01 X83.1181 Y27.9264
G01 X83.1264 Y27.9209
G01 X83.1344 Y27.9176
G01 X83.1546 Y27.9116
G01 X83.1734 Y27.9022
G01 X83.1792 Y27.8999
G01 X83.1889 Y27.8978
G01 X83.1951 Y27.8975
G01 X83.2013 Y27.8979
G01 X83.2084 Y27.8962
G01 X83.2167 Y27.8955
G01 X83.5788 Y27.8955
G01 X83.7431 Y27.8628
G01 X83.8979 Y27.7987
G01 X84.0372 Y27.7056
G01 X86.9088 Y24.8341
G01 X86.9180 Y24.8256
G01 X86.9263 Y24.8203
G01 X86.9932 Y24.7897
G01 X87.0027 Y24.7867
G01 X87.0101 Y24.7857
G01 X87.0188 Y24.7860
G01 X87.0928 Y24.7968
G01 X87.0988 Y24.7985
G01 X87.1034 Y24.8004
G01 X87.1077 Y24.8027
G01 X87.1128 Y24.8062
G01 X87.1685 Y24.8544
G01 X87.1720 Y24.8579
G01 X87.1759 Y24.8628
G01 X87.1802 Y24.8703
G01 X87.1828 Y24.8772
G01 X87.2028 Y24.9454
G01 X87.2040 Y24.9513
G01 X87.2045 Y24.9584
G01 X87.2045 Y48.9305
G01 X87.2036 Y48.9400
G01 X87.1919 Y48.9939
G01 X87.1900 Y48.9998
G01 X87.1868 Y49.0066
G01 X87.1811 Y49.0148
G01 X87.1345 Y49.0685
G01 X87.1281 Y49.0744
G01 X87.1219 Y49.0785
G01 X87.1128 Y49.0824
G01 X87.0446 Y49.1025
G01 X87.0376 Y49.1040
G01 X87.0305 Y49.1045
G01 X0.6495 Y49.1045
G01 X0.6400 Y49.1036
G01 X0.5874 Y49.0922
G01 X0.5814 Y49.0905
G01 X0.5756 Y49.0880
G01 X0.5713 Y49.0856
G01 X0.5662 Y49.0819
G01 X0.5097 Y49.0328
G01 X0.5056 Y49.0281
G01 X0.5028 Y49.0241
G01 X0.4998 Y49.0186
G01 X0.4976 Y49.0128
G01 X0.4772 Y48.9435
G01 X0.4759 Y48.9364
G01 X0.4755 Y48.9305
G00 Z2.0000
G00 X39.7875 Y12.8395
G01 F60.00
G01 Z-0.0000
G01 F120.00
G01 X39.6810 Y12.6930
G01 X39.5988 Y12.5317
G01 X39.5428 Y12.3594
G01 X39.5145 Y12.1806
G01 X39.5145 Y11.9995
G01 X39.5428 Y11.8206
G01 X39.5988 Y11.6484
G01 X39.6810 Y11.4870
G01 X39.7875 Y11.3405
G01 X39.9155 Y11.2125
G01 X40.0620 Y11.1060
G01 X40.2234 Y11.0238
G01 X40.3956 Y10.9678
G01 X40.5745 Y10.9395
G01 X40.7556 Y10.9395
G01 X40.9344 Y10.9678
G01 X41.1067 Y11.0238
G01 X41.2680 Y11.1060
G01 X41.4060 Y11.2063
G01 X41.4121 Y11.2101
G01 X41.4186 Y11.2129
G01 X41.4867 Y11.2372
G01 X41.4962 Y11.2391
G01 X41.5083 Y11.2395
G01 X82.3667 Y11.2395
G01 X82.3739 Y11.2390
G01 X82.3808 Y11.2375
G01 X82.4490 Y11.2174
G01 X82.4579 Y11.2136
G01 X82.4690 Y11.2063
G01 X82.6070 Y11.1060
G01 X82.7684 Y11.0238
G01 X82.9406 Y10.9678
G01 X83.1195 Y10.9395
G01 X83.3006 Y10.9395
G01 X83.4794 Y10.9678
G01 X83.6517 Y11.0238
G01 X83.8130 Y11.1060
G01 X83.9595 Y11.2125
G01 X84.0876 Y11.3405
G01 X84.1940 Y11.4870
G01 X84.2762 Y11.6484
G01 X84.3322 Y11.8206
G01 X84.3605 Y11.9995
G01 X84.3605 Y12.1806
G01 X84.3322 Y12.3594
G01 X84.2762 Y12.5317
G01 X84.1940 Y12.6930
G01 X84.0876 Y12.8395
G01 X83.9595 Y12.9676
G01 X83.8120 Y13.0747
G01 X83.8074 Y13.0785
G01 X83.8018 Y13.0847
G01 X83.7584 Y13.1410
G01 X83.7550 Y13.1462
G01 X83.7528 Y13.1507
G01 X83.7507 Y13.1565
G01 X83.7494 Y13.1626
G01 X83.7429 Y13.2359
G01 X83.7428 Y13.2421
G01 X83.7441 Y13.2519
G01 X83.7474 Y13.2613
G01 X83.7817 Y13.3264
G01 X83.7851 Y13.3316
G01 X83.7891 Y13.3363
G01 X83.7936 Y13.3406
G01 X83.7986 Y13.3442
G01 X83.8616 Y13.3798
G01 X83.8684 Y13.3830
G01 X83.8767 Y13.3854
G01 X83.8945 Y13.3884
G01 X83.9023 Y13.3892
G01 X84.0581 Y13.4408
G01 X84.1974 Y13.5268
G01 X84.3132 Y13.6426
G01 X84.3992 Y13.7820
G01 X84.4508 Y13.9377
G01 X84.4605 Y14.0326
G01 X84.4605 Y15.2275
G01 X84.4508 Y15.3223
G01 X84.3992 Y15.4781
G01 X84.3132 Y15.6174
G01 X84.1974 Y15.7332
G01 X84.0581 Y15.8192
G01 X83.9023 Y15.8708
G01 X83.8075 Y15.8805
G01 X82.6126 Y15.8805
G01 X82.5177 Y15.8708
G01 X82.3620 Y15.8192
G01 X82.2226 Y15.7332
G01 X82.1068 Y15.6174
G01 X82.0208 Y15.4781
G01 X81.9692 Y15.3223
G01 X81.9595 Y15.2275
G01 X81.9595 Y15.0802
G01 X82.3600 Y15.0802
G01 X82.3600 Y15.1812
G01 X82.3615 Y15.2094
G01 X82.3658 Y15.2385
G01 X82.3729 Y15.2671
G01 X82.3828 Y15.2948
G01 X82.3954 Y15.3214
G01 X82.4106 Y15.3467
G01 X82.4281 Y15.3703
G01 X82.4497 Y15.3938
G01 X82.4697 Y15.4119
G01 X82.4913 Y15.4280
G01 X82.5165 Y15.4434
G01 X82.5452 Y15.4572
G01 X82.5729 Y15.4671
G01 X82.6015 Y15.4742
G01 X82.6318 Y15.4787
G01 X82.6600 Y15.4800
G01 X83.7600 Y15.4800
G01 X83.7894 Y15.4786
G01 X83.8185 Y15.4742
G01 X83.8471 Y15.4671
G01 X83.8725 Y15.4581
G01 X83.9014 Y15.4446
G01 X83.9267 Y15.4295
G01 X83.9484 Y15.4134
G01 X83.9738 Y15.3904
G01 X83.9919 Y15.3703
G01 X84.0095 Y15.3467
G01 X84.0246 Y15.3214
G01 X84.0362 Y15.2971
G01 X84.0477 Y15.2647
G01 X84.0542 Y15.2385
G01 X84.0586 Y15.2094
G01 X84.0600 Y15.1800
G01 X84.0600 Y14.0800
G01 X84.0584 Y14.0494
G01 X84.0537 Y14.0191
G01 X84.0471 Y13.9929
G01 X84.0381 Y13.9675
G01 X84.0246 Y13.9386
G01 X84.0095 Y13.9133
G01 X83.9903 Y13.8878
G01 X83.9721 Y13.8679
G01 X83.9522 Y13.8497
G01 X83.9267 Y13.8306
G01 X83.9003 Y13.8149
G01 X83.8725 Y13.8020
G01 X83.8471 Y13.7929
G01 X83.8209 Y13.7863
G01 X83.7894 Y13.7815
G01 X83.7612 Y13.7800
G01 X82.6600 Y13.7800
G01 X82.6306 Y13.7815
G01 X82.6015 Y13.7858
G01 X82.5729 Y13.7929
G01 X82.5452 Y13.8028
G01 X82.5186 Y13.8154
G01 X82.4933 Y13.8306
G01 X82.4697 Y13.8481
G01 X82.4479 Y13.8679
G01 X82.4281 Y13.8897
G01 X82.4093 Y13.9154
G01 X82.3954 Y13.9386
G01 X82.3828 Y13.9652
G01 X82.3729 Y13.9929
G01 X82.3658 Y14.0215
G01 X82.3615 Y14.0506
G01 X82.3600 Y14.0788
G01 X82.3600 Y14.1798
G01 X81.9595 Y14.1798
G01 X81.9595 Y14.0326
G01 X81.9692 Y13.9377
G01 X82.0208 Y13.7820
G01 X82.1068 Y13.6426
G01 X82.2226 Y13.5268
G01 X82.3620 Y13.4408
G01 X82.5177 Y13.3892
G01 X82.5258 Y13.3883
G01 X82.5316 Y13.3871
G01 X82.5361 Y13.3856
G01 X82.5571 Y13.3771
G01 X82.5817 Y13.3712
G01 X82.5886 Y13.3685
G01 X82.5940 Y13.3654
G01 X82.5980 Y13.3625
G01 X82.6023 Y13.3586
G01 X82.6107 Y13.3541
G01 X82.6184 Y13.3479
G01 X82.6232 Y13.3422
G01 X82.6363 Y13.3236
G01 X82.6546 Y13.3045
G01 X82.6575 Y13.3005
G01 X82.6605 Y13.2951
G01 X82.6628 Y13.2893
G01 X82.6643 Y13.2837
G01 X82.6679 Y13.2776
G01 X82.6708 Y13.2708
G01 X82.6723 Y13.2647
G01 X82.6730 Y13.2598
G01 X82.6740 Y13.2359
G01 X82.6785 Y13.2136
G01 X82.6792 Y13.2075
G01 X82.6789 Y13.1988
G01 X82.6778 Y13.1927
G01 X82.6760 Y13.1871
G01 X82.6759 Y13.1813
G01 X82.6752 Y13.1764
G01 X82.6737 Y13.1704
G01 X82.6715 Y13.1646
G01 X82.6583 Y13.1417
G01 X82.6490 Y13.1182
G01 X82.6453 Y13.1116
G01 X82.6414 Y13.1067
G01 X82.6327 Y13.0980
G01 X82.6296 Y13.0938
G01 X82.6254 Y13.0892
G01 X82.6089 Y13.0754
G01 X82.4661 Y12.9718
G01 X82.4575 Y12.9675
G01 X82.3906 Y12.9436
G01 X82.3836 Y12.9417
G01 X82.3765 Y12.9408
G01 X82.3667 Y12.9405
G01 X41.5083 Y12.9405
G01 X41.5012 Y12.9410
G01 X41.4942 Y12.9425
G01 X41.4260 Y12.9626
G01 X41.4171 Y12.9664
G01 X41.4060 Y12.9737
G01 X41.2680 Y13.0740
G01 X41.1067 Y13.1562
G01 X40.9344 Y13.2122
G01 X40.7556 Y13.2405
G01 X40.5745 Y13.2405
G01 X40.3956 Y13.2122
G01 X40.2234 Y13.1562
G01 X40.0620 Y13.0740
G01 X39.9780 Y13.0130
G01 X39.9155 Y12.9676
G01 X39.7875 Y12.8395
G00 Z2.0000
G00 X40.3803 Y11.3962
G01 F60.00
G01 Z-0.0000
G01 F120.00
G01 X40.4473 Y11.3723
G01 X40.5187 Y11.3544
G01 X40.5915 Y11.3436
G01 X40.6626 Y11.3401
G01 X40.7410 Y11.3439
G01 X40.8113 Y11.3544
G01 X40.8815 Y11.3720
G01 X40.9520 Y11.3971
G01 X41.0164 Y11.4275
G01 X41.0827 Y11.4671
G01 X41.1408 Y11.5103
G01 X41.1945 Y11.5588
G01 X41.2440 Y11.6133
G01 X41.2638 Y11.6398
G01 X82.6112 Y11.6398
G01 X82.6310 Y11.6133
G01 X82.6788 Y11.5606
G01 X82.7333 Y11.5110
G01 X82.7933 Y11.4664
G01 X82.8576 Y11.4280
G01 X82.9253 Y11.3962
G01 X82.9923 Y11.3723
G01 X83.0613 Y11.3550
G01 X83.1365 Y11.3436
G01 X83.2112 Y11.3400
G01 X83.2835 Y11.3436
G01 X83.3563 Y11.3544
G01 X83.4277 Y11.3723
G01 X83.4970 Y11.3971
G01 X83.5636 Y11.4286
G01 X83.6267 Y11.4664
G01 X83.6858 Y11.5103
G01 X83.7403 Y11.5597
G01 X83.7898 Y11.6142
G01 X83.8336 Y11.6733
G01 X83.8715 Y11.7365
G01 X83.9029 Y11.8030
G01 X83.9277 Y11.8723
G01 X83.9456 Y11.9437
G01 X83.9564 Y12.0165
G01 X83.9600 Y12.0912
G01 X83.9564 Y12.1635
G01 X83.9456 Y12.2363
G01 X83.9277 Y12.3077
G01 X83.9029 Y12.3770
G01 X83.8715 Y12.4436
G01 X83.8336 Y12.5067
G01 X83.7898 Y12.5658
G01 X83.7403 Y12.6203
G01 X83.6858 Y12.6698
G01 X83.6267 Y12.7136
G01 X83.5636 Y12.7515
G01 X83.4970 Y12.7829
G01 X83.4277 Y12.8077
G01 X83.3563 Y12.8256
G01 X83.2835 Y12.8364
G01 X83.2112 Y12.8400
G01 X83.1365 Y12.8364
G01 X83.0613 Y12.8251
G01 X82.9923 Y12.8077
G01 X82.9253 Y12.7838
G01 X82.8576 Y12.7520
G01 X82.7933 Y12.7136
G01 X82.7333 Y12.6690
G01 X82.6788 Y12.6195
G01 X82.6310 Y12.5667
G01 X82.6112 Y12.5402
G01 X41.2638 Y12.5402
G01 X41.2440 Y12.5667
G01 X41.1962 Y12.6195
G01 X41.1417 Y12.6690
G01 X41.0817 Y12.7136
G01 X41.0175 Y12.7520
G01 X40.9497 Y12.7838
G01 X40.8827 Y12.8077
G01 X40.8137 Y12.8251
G01 X40.7385 Y12.8364
G01 X40.6638 Y12.8400
G01 X40.5915 Y12.8364
G01 X40.5187 Y12.8256
G01 X40.4473 Y12.8077
G01 X40.3803 Y12.7838
G01 X40.3093 Y12.7502
G01 X40.2483 Y12.7136
G01 X40.1892 Y12.6698
G01 X40.1347 Y12.6203
G01 X40.0853 Y12.5658
G01 X40.0414 Y12.5067
G01 X40.0048 Y12.4457
G01 X39.9712 Y12.3747
G01 X39.9473 Y12.3077
G01 X39.9294 Y12.2363
G01 X39.9186 Y12.1635
G01 X39.9150 Y12.0900
G01 X39.9186 Y12.0165
G01 X39.9290 Y11.9461
G01 X39.9481 Y11.8700
G01 X39.9721 Y11.8030
G01 X40.0036 Y11.7365
G01 X40.0414 Y11.6733
G01 X40.0853 Y11.6142
G01 X40.1347 Y11.5597
G01 X40.1874 Y11.5119
G01 X40.2504 Y11.4651
G01 X40.3115 Y11.4286
G01 X40.3803 Y11.3962
G00 Z2.0000
G00 X57.5253 Y15.8412
G01 F60.00
G01 Z-0.0000
G01 F120.00
G01 X57.5923 Y15.8173
G01 X57.6613 Y15.8000
G01 X57.7365 Y15.7886
G01 X57.8125 Y15.7851
G01 X57.8835 Y15.7886
G01 X57.9539 Y15.7990
G01 X58.0277 Y15.8173
G01 X58.0993 Y15.8431
G01 X58.1636 Y15.8736
G01 X58.2246 Y15.9101
G01 X58.2867 Y15.9560
G01 X58.3420 Y16.0065
G01 X58.3898 Y16.0592
G01 X58.4322 Y16.1163
G01 X58.4715 Y16.1815
G01 X58.5034 Y16.2491
G01 X58.5284 Y16.3197
G01 X58.5456 Y16.3887
G01 X58.5563 Y16.4603
G01 X58.5600 Y16.5362
G01 X58.5565 Y16.6073
G01 X58.5518 Y16.6401
G01 X59.2665 Y17.3548
G01 X61.6562 Y17.3548
G01 X61.6760 Y17.3283
G01 X61.7256 Y17.2738
G01 X61.7792 Y17.2253
G01 X61.8373 Y17.1821
G01 X61.9015 Y17.1436
G01 X61.9658 Y17.1131
G01 X62.0385 Y17.0870
G01 X62.1087 Y17.0694
G01 X62.1815 Y17.0586
G01 X62.2550 Y17.0550
G01 X62.3261 Y17.0584
G01 X62.4037 Y17.0700
G01 X62.4727 Y17.0873
G01 X62.5420 Y17.1121
G01 X62.6086 Y17.1436
G01 X62.6717 Y17.1814
G01 X62.7308 Y17.2253
G01 X62.7853 Y17.2747
G01 X62.8348 Y17.3292
G01 X62.8786 Y17.3883
G01 X62.9165 Y17.4515
G01 X62.9479 Y17.5180
G01 X62.9727 Y17.5873
G01 X62.9906 Y17.6587
G01 X63.0014 Y17.7315
G01 X63.0050 Y17.8050
G01 X63.0014 Y17.8785
G01 X62.9906 Y17.9513
G01 X62.9727 Y18.0227
G01 X62.9479 Y18.0920
G01 X62.9165 Y18.1586
G01 X62.8799 Y18.2196
G01 X62.8348 Y18.2808
G01 X62.7836 Y18.3370
G01 X62.7308 Y18.3848
G01 X62.6717 Y18.4286
G01 X62.6086 Y18.4665
G01 X62.5443 Y18.4969
G01 X62.4727 Y18.5227
G01 X62.3989 Y18.5410
G01 X62.3285 Y18.5514
G01 X62.2562 Y18.5550
G01 X62.1815 Y18.5514
G01 X62.1063 Y18.5401
G01 X62.0373 Y18.5227
G01 X61.9703 Y18.4988
G01 X61.9026 Y18.4670
G01 X61.8383 Y18.4286
G01 X61.7783 Y18.3840
G01 X61.7238 Y18.3345
G01 X61.6760 Y18.2817
G01 X61.6562 Y18.2552
G01 X59.0788 Y18.2552
G01 X59.0359 Y18.2530
G01 X58.9922 Y18.2466
G01 X58.9493 Y18.2358
G01 X58.9077 Y18.2209
G01 X58.8678 Y18.2021
G01 X58.8299 Y18.1793
G01 X58.7944 Y18.1530
G01 X58.7626 Y18.1242
G01 X57.9151 Y17.2768
G01 X57.8823 Y17.2815
G01 X57.8088 Y17.2850
G01 X57.7365 Y17.2814
G01 X57.6649 Y17.2708
G01 X57.5900 Y17.2519
G01 X57.5230 Y17.2279
G01 X57.4576 Y17.1970
G01 X57.3913 Y17.1572
G01 X57.3342 Y17.1148
G01 X57.2797 Y17.0653
G01 X57.2287 Y17.0089
G01 X57.1864 Y16.9517
G01 X57.1492 Y16.8896
G01 X57.1171 Y16.8220
G01 X57.0923 Y16.7527
G01 X57.0744 Y16.6813
G01 X57.0634 Y16.6061
G01 X57.0600 Y16.5350
G01 X57.0639 Y16.4591
G01 X57.0750 Y16.3863
G01 X57.0923 Y16.3173
G01 X57.1162 Y16.2503
G01 X57.1486 Y16.1815
G01 X57.1864 Y16.1183
G01 X57.2303 Y16.0592
G01 X57.2797 Y16.0047
G01 X57.3342 Y15.9553
G01 X57.3933 Y15.9114
G01 X57.4565 Y15.8736
G01 X57.5253 Y15.8412
G00 Z2.0000
G00 X61.5875 Y23.3270
G01 F60.00
G01 Z-0.0000
G01 F120.00
G01 X61.6129 Y23.3179
G01 X61.6391 Y23.3113
G01 X61.6706 Y23.3065
G01 X61.7000 Y23.3050
G01 X61.7998 Y23.3050
G01 X61.7998 Y20.3488
G01 X61.8020 Y20.3059
G01 X61.8080 Y20.2646
G01 X61.8192 Y20.2193
G01 X61.8351 Y20.1755
G01 X61.8530 Y20.1378
G01 X61.8750 Y20.1009
G01 X61.9020 Y20.0644
G01 X61.9317 Y20.0317
G01 X63.9450 Y18.0183
G01 X63.9450 Y17.2550
G01 X63.9465 Y17.2256
G01 X63.9508 Y17.1965
G01 X63.9579 Y17.1679
G01 X63.9678 Y17.1402
G01 X63.9804 Y17.1136
G01 X63.9956 Y17.0883
G01 X64.0131 Y17.0647
G01 X64.0329 Y17.0429
G01 X64.0538 Y17.0239
G01 X64.0783 Y17.0056
G01 X64.1015 Y16.9916
G01 X64.1325 Y16.9770
G01 X64.1579 Y16.9679
G01 X64.1865 Y16.9608
G01 X64.2156 Y16.9565
G01 X64.2438 Y16.9550
G01 X65.3475 Y16.9551
G01 X65.3744 Y16.9565
G01 X65.4011 Y16.9604
G01 X65.4321 Y16.9679
G01 X65.4621 Y16.9788
G01 X65.4864 Y16.9904
G01 X65.5107 Y17.0049
G01 X65.5353 Y17.0231
G01 X65.5588 Y17.0447
G01 X65.5769 Y17.0647
G01 X65.5930 Y17.0863
G01 X65.6096 Y17.1136
G01 X65.6222 Y17.1402
G01 X65.6327 Y17.1703
G01 X65.6392 Y17.1965
G01 X65.6433 Y17.2232
G01 X65.6450 Y17.2526
G01 X65.6450 Y18.3550
G01 X65.6437 Y18.3820
G01 X65.6387 Y18.4159
G01 X65.6321 Y18.4421
G01 X65.6222 Y18.4698
G01 X65.6084 Y18.4986
G01 X65.5945 Y18.5217
G01 X65.5777 Y18.5444
G01 X65.5571 Y18.5671
G01 X65.5353 Y18.5869
G01 X65.5117 Y18.6045
G01 X65.4864 Y18.6196
G01 X65.4598 Y18.6322
G01 X65.4321 Y18.6421
G01 X65.4035 Y18.6492
G01 X65.3756 Y18.6534
G01 X65.3450 Y18.6550
G01 X64.5817 Y18.6550
G01 X62.7002 Y20.5365
G01 X62.7002 Y23.3050
G01 X62.8012 Y23.3050
G01 X62.8294 Y23.3065
G01 X62.8585 Y23.3108
G01 X62.8871 Y23.3179
G01 X62.9148 Y23.3278
G01 X62.9414 Y23.3404
G01 X62.9667 Y23.3556
G01 X62.9903 Y23.3731
G01 X63.0138 Y23.3947
G01 X63.0334 Y23.4166
G01 X63.0495 Y23.4383
G01 X63.0634 Y23.4615
G01 X63.0772 Y23.4902
G01 X63.0871 Y23.5179
G01 X63.0942 Y23.5465
G01 X63.0987 Y23.5768
G01 X63.1000 Y23.6050
G01 X63.1000 Y24.7050
G01 X63.0987 Y24.7332
G01 X63.0942 Y24.7635
G01 X63.0871 Y24.7921
G01 X63.0772 Y24.8198
G01 X63.0646 Y24.8464
G01 X63.0495 Y24.8717
G01 X63.0319 Y24.8953
G01 X63.0121 Y24.9171
G01 X62.9913 Y24.9361
G01 X62.9646 Y24.9558
G01 X62.9414 Y24.9696
G01 X62.9148 Y24.9822
G01 X62.8871 Y24.9921
G01 X62.8609 Y24.9987
G01 X62.8270 Y25.0037
G01 X62.8000 Y25.0050
G01 X61.6988 Y25.0050
G01 X61.6706 Y25.0036
G01 X61.6415 Y24.9992
G01 X61.6129 Y24.9921
G01 X61.5830 Y24.9812
G01 X61.5586 Y24.9696
G01 X61.5354 Y24.9558
G01 X61.5116 Y24.9384
G01 X61.4879 Y24.9171
G01 X61.4689 Y24.8963
G01 X61.4493 Y24.8696
G01 X61.4354 Y24.8464
G01 X61.4228 Y24.8198
G01 X61.4129 Y24.7921
G01 X61.4063 Y24.7659
G01 X61.4013 Y24.7320
G01 X61.4000 Y24.7050
G01 X61.4000 Y23.6050
G01 X61.4014 Y23.5768
G01 X61.4063 Y23.5441
G01 X61.4129 Y23.5179
G01 X61.4228 Y23.4902
G01 X61.4366 Y23.4615
G01 X61.4506 Y23.4383
G01 X61.4666 Y23.4166
G01 X61.4879 Y23.3929
G01 X61.5116 Y23.3716
G01 X61.5333 Y23.3556
G01 X61.5565 Y23.3416
G01 X61.5875 Y23.3270
G00 Z2.0000
G00 X54.3453 Y26.0012
G01 F60.00
G01 Z-0.0000
G01 F120.00
G01 X54.4123 Y25.9773
G01 X54.4837 Y25.9594
G01 X54.5565 Y25.9486
G01 X54.6300 Y25.9450
G01 X54.7035 Y25.9486
G01 X54.7763 Y25.9594
G01 X54.8477 Y25.9773
G01 X54.9170 Y26.0021
G01 X54.9836 Y26.0336
G01 X55.0467 Y26.0714
G01 X55.1058 Y26.1153
G01 X55.1603 Y26.1647
G01 X55.2098 Y26.2192
G01 X55.2536 Y26.2783
G01 X55.2915 Y26.3415
G01 X55.3229 Y26.4080
G01 X55.3477 Y26.4773
G01 X55.3656 Y26.5487
G01 X55.3764 Y26.6215
G01 X55.3800 Y26.6950
G01 X55.3764 Y26.7685
G01 X55.3656 Y26.8413
G01 X55.3477 Y26.9127
G01 X55.3229 Y26.9820
G01 X55.2915 Y27.0486
G01 X55.2536 Y27.1117
G01 X55.2098 Y27.1708
G01 X55.1603 Y27.2253
G01 X55.1058 Y27.2748
G01 X55.0467 Y27.3186
G01 X54.9836 Y27.3565
G01 X54.9170 Y27.3879
G01 X54.8477 Y27.4127
G01 X54.7763 Y27.4306
G01 X54.7035 Y27.4414
G01 X54.6300 Y27.4450
G01 X54.5565 Y27.4414
G01 X54.4837 Y27.4306
G01 X54.4123 Y27.4127
G01 X54.3430 Y27.3879
G01 X54.2765 Y27.3565
G01 X54.2133 Y27.3186
G01 X54.1542 Y27.2748
G01 X54.0997 Y27.2253
G01 X54.0503 Y27.1708
G01 X54.0064 Y27.1117
G01 X53.9686 Y27.0486
G01 X53.9371 Y26.9820
G01 X53.9123 Y26.9127
G01 X53.8944 Y26.8413
G01 X53.8836 Y26.7685
G01 X53.8800 Y26.6950
G01 X53.8836 Y26.6215
G01 X53.8944 Y26.5487
G01 X53.9123 Y26.4773
G01 X53.9371 Y26.4080
G01 X53.9686 Y26.3415
G01 X54.0064 Y26.2783
G01 X54.0503 Y26.2192
G01 X54.0997 Y26.1647
G01 X54.1542 Y26.1153
G01 X54.2133 Y26.0714
G01 X54.2765 Y26.0336
G01 X54.3453 Y26.0012
G00 Z2.0000
G00 X54.3453 Y28.5412
G01 F60.00
G01 Z-0.0000
G01 F120.00
G01 X54.4123 Y28.5173
G01 X54.4837 Y28.4994
G01 X54.5565 Y28.4886
G01 X54.6300 Y28.4850
G01 X54.7035 Y28.4886
G01 X54.7763 Y28.4994
G01 X54.8477 Y28.5173
G01 X54.9170 Y28.5421
G01 X54.9836 Y28.5736
G01 X55.0467 Y28.6114
G01 X55.1058 Y28.6553
G01 X55.1603 Y28.7047
G01 X55.2098 Y28.7592
G01 X55.2536 Y28.8183
G01 X55.2915 Y28.8815
G01 X55.3229 Y28.9480
G01 X55.3477 Y29.0173
G01 X55.3656 Y29.0887
G01 X55.3764 Y29.1615
G01 X55.3800 Y29.2350
G01 X55.3764 Y29.3085
G01 X55.3656 Y29.3813
G01 X55.3477 Y29.4527
G01 X55.3229 Y29.5220
G01 X55.2915 Y29.5886
G01 X55.2536 Y29.6517
G01 X55.2098 Y29.7108
G01 X55.1603 Y29.7653
G01 X55.1058 Y29.8148
G01 X55.0467 Y29.8586
G01 X54.9836 Y29.8965
G01 X54.9170 Y29.9279
G01 X54.8477 Y29.9527
G01 X54.7763 Y29.9706
G01 X54.7035 Y29.9814
G01 X54.6300 Y29.9850
G01 X54.5565 Y29.9814
G01 X54.4837 Y29.9706
G01 X54.4123 Y29.9527
G01 X54.3430 Y29.9279
G01 X54.2765 Y29.8965
G01 X54.2133 Y29.8586
G01 X54.1542 Y29.8148
G01 X54.0997 Y29.7653
G01 X54.0503 Y29.7108
G01 X54.0064 Y29.6517
G01 X53.9686 Y29.5886
G01 X53.9371 Y29.5220
G01 X53.9123 Y29.4527
G01 X53.8944 Y29.3813
G01 X53.8836 Y29.3085
G01 X53.8800 Y29.2350
G01 X53.8836 Y29.1615
G01 X53.8944 Y29.0887
G01 X53.9123 Y29.0173
G01 X53.9371 Y28.9480
G01 X53.9686 Y28.8815
G01 X54.0064 Y28.8183
G01 X54.0503 Y28.7592
G01 X54.0997 Y28.7047
G01 X54.1542 Y28.6553
G01 X54.2133 Y28.6114
G01 X54.2765 Y28.5736
G01 X54.3453 Y28.5412
G00 Z2.0000
G00 X54.3453 Y31.0812
G01 F60.00
G01 Z-0.0000
G01 F120.00
G01 X54.4123 Y31.0573
G01 X54.4837 Y31.0394
G01 X54.5565 Y31.0286
G01 X54.6300 Y31.0250
G01 X54.7035 Y31.0286
G01 X54.7763 Y31.0394
G01 X54.8477 Y31.0573
G01 X54.9170 Y31.0821
G01 X54.9836 Y31.1136
G01 X55.0467 Y31.1514
G01 X55.1058 Y31.1953
G01 X55.1603 Y31.2447
G01 X55.2098 Y31.2992
G01 X55.2536 Y31.3583
G01 X55.2915 Y31.4215
G01 X55.3229 Y31.4880
G01 X55.3477 Y31.5573
G01 X55.3656 Y31.6287
G01 X55.3764 Y31.7015
G01 X55.3800 Y31.7750
G01 X55.3764 Y31.8485
G01 X55.3656 Y31.9213
G01 X55.3477 Y31.9927
G01 X55.3229 Y32.0620
G01 X55.2915 Y32.1286
G01 X55.2536 Y32.1917
G01 X55.2098 Y32.2508
G01 X55.1603 Y32.3053
G01 X55.1058 Y32.3548
G01 X55.0467 Y32.3986
G01 X54.9836 Y32.4365
G01 X54.9170 Y32.4679
G01 X54.8477 Y32.4927
G01 X54.7763 Y32.5106
G01 X54.7035 Y32.5214
G01 X54.6300 Y32.5250
G01 X54.5565 Y32.5214
G01 X54.4837 Y32.5106
G01 X54.4123 Y32.4927
G01 X54.3430 Y32.4679
G01 X54.2765 Y32.4365
G01 X54.2133 Y32.3986
G01 X54.1542 Y32.3548
G01 X54.0997 Y32.3053
G01 X54.0503 Y32.2508
G01 X54.0064 Y32.1917
G01 X53.9686 Y32.1286
G01 X53.9371 Y32.0620
G01 X53.9123 Y31.9927
G01 X53.8944 Y31.9213
G01 X53.8836 Y31.8485
G01 X53.8800 Y31.7750
G01 X53.8836 Y31.7015
G01 X53.8944 Y31.6287
G01 X53.9123 Y31.5573
G01 X53.9371 Y31.4880
G01 X53.9686 Y31.4215
G01 X54.0064 Y31.3583
G01 X54.0503 Y31.2992
G01 X54.0997 Y31.2447
G01 X54.1542 Y31.1953
G01 X54.2133 Y31.1514
G01 X54.2765 Y31.1136
G01 X54.3453 Y31.0812
G00 Z2.0000
G00 X56.6159 Y45.1828
G01 F60.00
G01 Z-0.0000
G01 F120.00
G01 X56.5893 Y45.1629
G01 X56.5366 Y45.1151
G01 X56.4871 Y45.0607
G01 X56.4425 Y45.0006
G01 X56.4052 Y44.9386
G01 X56.3732 Y44.8710
G01 X56.3484 Y44.8017
G01 X56.3305 Y44.7303
G01 X56.3198 Y44.6587
G01 X56.3161 Y44.5840
G01 X56.3197 Y44.5104
G01 X56.3305 Y44.4376
G01 X56.3484 Y44.3662
G01 X56.3732 Y44.2969
G01 X56.4046 Y44.2304
G01 X56.4425 Y44.1673
G01 X56.4855 Y44.1091
G01 X56.5357 Y44.0536
G01 X56.5903 Y44.0042
G01 X56.6494 Y43.9604
G01 X56.7125 Y43.9225
G01 X56.7791 Y43.8911
G01 X56.8483 Y43.8663
G01 X56.9197 Y43.8484
G01 X56.9926 Y43.8376
G01 X57.0661 Y43.8340
G01 X57.1396 Y43.8376
G01 X57.2124 Y43.8484
G01 X57.2838 Y43.8663
G01 X57.3531 Y43.8911
G01 X57.4196 Y43.9225
G01 X57.4827 Y43.9604
G01 X57.5409 Y44.0034
G01 X57.5964 Y44.0536
G01 X57.6458 Y44.1082
G01 X57.6897 Y44.1673
G01 X57.7286 Y44.2326
G01 X57.7599 Y44.2992
G01 X57.7838 Y44.3662
G01 X57.8011 Y44.4352
G01 X57.8125 Y44.5104
G01 X57.8161 Y44.5840
G01 X57.8125 Y44.6575
G01 X57.8011 Y44.7327
G01 X57.7838 Y44.8017
G01 X57.7599 Y44.8687
G01 X57.7281 Y44.9364
G01 X57.6897 Y45.0006
G01 X57.6450 Y45.0607
G01 X57.5955 Y45.1151
G01 X57.5428 Y45.1629
G01 X57.5163 Y45.1828
G01 X57.5163 Y46.1384
G01 X58.5387 Y47.1608
G01 X71.1552 Y47.1608
G01 X83.7668 Y34.5492
G01 X83.7668 Y30.5539
G01 X82.7081 Y29.4952
G01 X82.5388 Y29.4952
G01 X82.5190 Y29.5217
G01 X82.4712 Y29.5745
G01 X82.4167 Y29.6240
G01 X82.3567 Y29.6686
G01 X82.2925 Y29.7070
G01 X82.2247 Y29.7388
G01 X82.1577 Y29.7627
G01 X82.0887 Y29.7801
G01 X82.0135 Y29.7914
G01 X81.9400 Y29.7950
G01 X81.8665 Y29.7914
G01 X81.7913 Y29.7801
G01 X81.7223 Y29.7627
G01 X81.6553 Y29.7388
G01 X81.5876 Y29.7070
G01 X81.5233 Y29.6686
G01 X81.4633 Y29.6240
G01 X81.4088 Y29.5745
G01 X81.3610 Y29.5217
G01 X81.3412 Y29.4952
G01 X62.9526 Y29.4952
G01 X62.9424 Y29.5232
G01 X62.9109 Y29.5896
G01 X62.8736 Y29.6517
G01 X62.8305 Y29.7098
G01 X62.7786 Y29.7670
G01 X62.7258 Y29.8148
G01 X62.6677 Y29.8579
G01 X62.6014 Y29.8976
G01 X62.5370 Y29.9279
G01 X62.4677 Y29.9527
G01 X62.3963 Y29.9706
G01 X62.3260 Y29.9811
G01 X62.2476 Y29.9850
G01 X62.1765 Y29.9814
G01 X62.1037 Y29.9706
G01 X62.0323 Y29.9527
G01 X61.9653 Y29.9288
G01 X61.8943 Y29.8952
G01 X61.8333 Y29.8586
G01 X61.7742 Y29.8148
G01 X61.7197 Y29.7653
G01 X61.6719 Y29.7127
G01 X61.6251 Y29.6496
G01 X61.5886 Y29.5886
G01 X61.5571 Y29.5220
G01 X61.5323 Y29.4527
G01 X61.5150 Y29.3837
G01 X61.5034 Y29.3061
G01 X61.5000 Y29.2350
G01 X61.5036 Y29.1615
G01 X61.5144 Y29.0887
G01 X61.5317 Y29.0197
G01 X61.5581 Y28.9458
G01 X61.5886 Y28.8815
G01 X61.6264 Y28.8183
G01 X61.6703 Y28.7592
G01 X61.7180 Y28.7065
G01 X61.7762 Y28.6537
G01 X61.8333 Y28.6114
G01 X61.8965 Y28.5736
G01 X61.9630 Y28.5421
G01 X62.0347 Y28.5167
G01 X62.1037 Y28.4994
G01 X62.1741 Y28.4889
G01 X62.2500 Y28.4850
G01 X62.3260 Y28.4889
G01 X62.3963 Y28.4994
G01 X62.4665 Y28.5170
G01 X62.5382 Y28.5426
G01 X62.6025 Y28.5730
G01 X62.6391 Y28.5948
G01 X81.3412 Y28.5948
G01 X81.3610 Y28.5683
G01 X81.4088 Y28.5156
G01 X81.4652 Y28.4645
G01 X81.5254 Y28.4201
G01 X81.5865 Y28.3836
G01 X81.6519 Y28.3526
G01 X81.7223 Y28.3273
G01 X81.7961 Y28.3090
G01 X81.8665 Y28.2986
G01 X81.9376 Y28.2951
G01 X82.0123 Y28.2985
G01 X82.0863 Y28.3094
G01 X82.1577 Y28.3273
G01 X82.2270 Y28.3521
G01 X82.2946 Y28.3842
G01 X82.3567 Y28.4214
G01 X82.4167 Y28.4660
G01 X82.4712 Y28.5156
G01 X82.5190 Y28.5683
G01 X82.5388 Y28.5948
G01 X82.8946 Y28.5948
G01 X82.9400 Y28.5971
G01 X82.9848 Y28.6040
G01 X83.0253 Y28.6142
G01 X83.0646 Y28.6282
G01 X83.1068 Y28.6480
G01 X83.1457 Y28.6714
G01 X83.1802 Y28.6970
G01 X83.2129 Y28.7267
G01 X84.5354 Y30.0491
G01 X84.5665 Y30.0837
G01 X84.5913 Y30.1173
G01 X84.6141 Y30.1552
G01 X84.6338 Y30.1974
G01 X84.6478 Y30.2367
G01 X84.6580 Y30.2772
G01 X84.6650 Y30.3233
G01 X84.6672 Y30.3674
G01 X84.6672 Y34.7356
G01 X84.6647 Y34.7822
G01 X84.6586 Y34.8235
G01 X84.6478 Y34.8663
G01 X84.6329 Y34.9079
G01 X84.6152 Y34.9457
G01 X84.5899 Y34.9878
G01 X84.5650 Y35.0212
G01 X84.5354 Y35.0540
G01 X71.6600 Y47.9294
G01 X71.6253 Y47.9605
G01 X71.5918 Y47.9853
G01 X71.5539 Y48.0081
G01 X71.5116 Y48.0278
G01 X71.4723 Y48.0418
G01 X71.4319 Y48.0520
G01 X71.3858 Y48.0590
G01 X71.3416 Y48.0612
G01 X58.3522 Y48.0612
G01 X58.3081 Y48.0590
G01 X58.2644 Y48.0526
G01 X58.2215 Y48.0418
G01 X58.1822 Y48.0278
G01 X58.1400 Y48.0081
G01 X58.1001 Y47.9839
G01 X58.0666 Y47.9590
G01 X58.0348 Y47.9302
G01 X56.7477 Y46.6432
G01 X56.7165 Y46.6085
G01 X56.6917 Y46.5750
G01 X56.6696 Y46.5382
G01 X56.6501 Y46.4971
G01 X56.6346 Y46.4532
G01 X56.6245 Y46.4127
G01 X56.6183 Y46.3714
G01 X56.6159 Y46.3273
G01 X56.6159 Y45.1828
G00 Z2.0000
M05
G00 Z2.0000
G00 Z15.00


